!!!COM: Beethoven, Ludwig van
!!!CDT: 1770///-1827///
!!!OTL: Piano Sonata no. 23 in F minor
!!!OTP: appassionata
!!!ODT: 1804///-1805///
!!!ODE: Comte Franz de Brunswick
!!!OMD: Allegro assai
!!!OPS: 57
!!!OMV: 1
**kern	**dynam	**kern	**dynam
*staff2	*	*staff1	*staff1/2
*Ipiano	*	*Ipiano	*Ipiano
*clefF4	*	*clefG2	*clefG2
*k[b-e-a-d-]	*	*k[b-e-a-d-]	*k[b-e-a-d-]
*f:	*	*f:	*f:
*M12/8	*	*M12/8	*M12/8
*MM144	*	*MM144	*MM144
!	!	!LO:S:a	!
([4CC/	.	([4c/	pp
16CC/LL]	.	16c/LL]	.
16AAA-/JJ	.	16A-/JJ	.
=1	=1	=1	=1
[2.FFF/	.	[2.F/	.
4.FFF/]	.	4.F/]	.
[4AAA-/	.	[4A-/	.
16AAA-/LL]	.	16A-/LL]	.
16CC/JJ	.	16c/JJ	.
=2	=2	=2	=2
4.FF/	.	4.f/	.
[4AA-/	.	[4a-/	.
16AA-/LL]	.	16a-/LL]	.
16C/JJ	.	16cc/JJ	.
4.F\	.	4.ff\	.
4.A-\	.	4.f/	.
=3	=3	=3	=3
2.En\ 2.G\ 2.c\)	.	[4.cc\	.
.	.	4cc\]	.
.	.	8ddn\	.
.	.	(cc8q/	.
2.F\ 2.A-\ 2.Bn\	.	[4.ddt\)	.
.	.	8.dd\L]	.
.	.	16cc\L	.
.	.	16een\	.
.	.	16dd\JJ	.
=4	=4	=4	=4
4En\ 4G\ 4c\	.	4cc\)	.
8r	.	8r	.
4r	.	4r	.
8r	.	8r	.
4r	.	4r	.
8r	.	8r	.
!LO:S:b	!	!LO:S:a	!
([4DD-X/	.	([4d-X/	.
16DD-/LL]	.	16d-/LL]	.
16BBB-/JJ	.	16B-/JJ	.
=5	=5	=5	=5
[2.GGG-/	.	[2.G-/	.
4.GGG-/]	.	4.G-/]	.
[4BBB-/	.	[4B-/	.
16BBB-/LL]	.	16B-/LL]	.
16DD-/JJ	.	16d-/JJ	.
=6	=6	=6	=6
4.GG-/	.	4.g-/	.
[4BB-/	.	[4b-\	.
16BB-/LL]	.	16b-\LL]	.
16D-/JJ	.	16dd-\JJ	.
4.G-\	.	4.gg-\	.
4.B-\	.	4.g-/	.
=7	=7	=7	=7
2.F\ 2.A-\ 2.d-\)	.	[4.dd-\	.
.	.	4dd-\]	.
.	.	8ee-\	.
.	.	(dd-8q/	.
2.G-\ 2.An\ 2.c\	.	[4.ee-\)	.
.	.	(8.ee-\L]	.
.	.	16dd-\L	.
.	.	16ff\	.
.	.	16ee-\JJ)	.
=8	=8	=8	=8
4F\ 4A-X\ 4d-\	.	4dd-\)	.
8r	.	8r	.
4r	.	4r	.
8r	.	8r	.
2.r	.	2.r	.
*clefG2	*	*	*
=9	=9	=9	=9
2.en/ 2.g/	.	([4.cc\	<
.	.	4cc\]	(
.	.	8ddn\	(
.	.	(8ccq/	(
2.f/ 2.a-/ 2.bn/	.	[4.dd\)	[
.	.	8.dd\L]	>
.	.	16cc\L	)
.	.	16een\	)
.	.	16dd\JJ	]
=10	=10	=10	=10
4en/ 4g/	.	4cc\)	.
8r	.	8r	.
*clefF4	*	*	*
!	!LO:DY:a	!	!
8DD-'/L	p	4r	.
8DD-'/	.	.	.
8DD-'/J	.	8r	.
4CC'/	.	2.r	.
8r	.	.	.
4r	.	.	.
8r	.	.	.
*clefG2	*	*	*
=11	=11	=11	=11
2.g\ 2.b-X\ 2.dd-X\	.	([4.een\	<
.	.	4ee\]	(
.	.	8ff\	(
2.a-\ 2.b-\ 2.dd-\	.	[4.ff\	[
.	.	8.ff\L]	>
.	.	16ee\L	)
.	.	16gg\	)
.	.	16ff\JJ	]
=12	=12	=12	=12
4g\ 4b-\ 4dd-\	.	4een\)	.
8r	.	8r	.
*clefF4	*	*	*
!	!LO:DY:a	!	!
!	!	!LO:TX:a:t=poco rit.	!
8DD-'/L	p	4r	.
8DD-'/	.	.	.
8DD-'/J	.	8r	.
4CC'/	.	4r	.
8r	.	8r	.
4r	.	8ee\ 8gg\L	pp
.	.	8ee\ 8gg\	.
8r	.	8ee\ 8gg\J	.
=13	=13	=13	=13
4r	.	4gg\ 4bb-\	.
8r	.	8r	.
8DD-'/L	.	4r	.
8DD-'/	.	.	.
8DD-'/J	.	8r	.
!	!	!LO:TX:a:t=a tempo	!
4CC'/	.	4r	.
8r	.	8r	.
4r	.	8gg\ 8bb-\L	f
.	.	8gg\ 8bb-\	.
8r	.	8gg\ 8bb-\J	.
=14	=14	=14	=14
1.r	.	16eeen\LL	f
.	.	16bb-\	.
.	.	16ggg\	.
.	.	16eee\	.
.	.	16bbb-\	.
.	.	16ggg\JJ	.
.	.	16eee\LL	.
.	.	16ggg\	.
.	.	16bb-\	.
.	.	16eee\	.
.	.	16gg\	.
.	.	16bb-\JJ	.
.	.	16een\LL	.
.	.	16gg\	.
.	.	16b-\	.
.	.	16ee\	.
.	.	16g\	.
.	.	16b-\JJ	.
.	.	16en/LL	.
.	.	16g/	.
.	.	16B-/	.
.	.	16e/	.
.	.	16G/	.
.	.	16B-/JJ	.
=15	=15	=15	=15
*^	*	*	*
16En/LL	4r	.	2.ryy	.
16G/	.	.	.	.
16BB-/	.	.	.	.
16E/JJ	.	.	.	.
8r	16GGG\LL	.	.	.
.	16BBB-\JJ	.	.	.
4r	16EEn\LL	.	.	.
.	16GG\	.	.	.
.	16BB-\	.	.	.
.	16D-\JJ	.	.	.
16E/LL	8r	.	.	.
16G/JJ	.	.	.	.
8B-/	4r	.	4.ryy	.
8r	.	.	.	.
8r	8r	.	.	.
4.ryy	8FFF\ 8FF\	f	8D-j/ 8A-j/ 8d-/	f
.	8r	.	8r	.
.	8r	.	8r	.
*v	*v	*	*	*
=16	=16	=16	=16
[2.EEn\ [2.C\	.	[2.Enj/ [2.Gj/ [2.c/	p
4.EE;\] 4.C;\]	.	4.E;j/] 4.G;j/] 4.c;/]	.
[4CC/	.	[4c/	p
16CC/LL]	.	16c/LL]	.
16AAA-/JJ	.	16A-/JJ	.
=17	=17	=17	=17
8FFF/	.	8F/	ff
8r	.	4F/ 4A-/ 4c/ 4f/	.
[8FFF/ [8AAA-/ [8CC/ [8FF/	.	.	.
8FFF/] 8AAA-/] 8CC/] 8FF/]	.	4A-/ 4c/ 4f/ 4a-/	.
4FFF/ 4AAA-/ 4CC/ 4FF/	.	.	.
.	.	4c/ 4f/ 4a-/ 4cc/	.
4FFF/ 4AAA-/ 4CC/ 4FF/	.	.	.
.	.	4f/ 4a-/ 4cc/ 4ff/	.
[8FFF/ [8AAA-/ [8CC/ [8FF/	.	.	.
8FFF/] 8AAA-/] 8CC/] 8FF/]	.	4a-\ 4cc\ 4ff\ 4aa-\	.
4FFF/ 4CC/ 4FF/	.	.	.
.	.	8cc\ 8ff\ 8aa-\ 8ccc\	.
=18	=18	=18	=18
[2.FFF/ [2.AAA-/ [2.CC/ [2.FF/	.	[2.ff\ [2.aa-\ [2.ccc\ [2.fff\	sf
4.FFF/] 4.AAA-/] 4.CC/] 4.FF/]	.	4.ff\] 4.aa-\] 4.ccc\] 4.fff\]	.
!LO:S:a	!	!LO:S:a	!
([4AAA-/	.	([4A-/	p
16AAA-/LL]	.	16A-/LL]	.
16CC/JJ	.	16c/JJ	.
=19	=19	=19	=19
4.FF/	.	4.f/	.
[4AA-/	.	[4a-/	.
16AA-/LL]	.	16a-/LL]	.
16C/JJ	.	16cc/JJ	.
4.F\	.	4.ff\	.
4.FF/)	.	4.f/)	.
=20	=20	=20	=20
4r	.	8En/ 8G/ 8c/	.
.	.	4G/ 4en/	.
[8EEn/ [8GG/ [8C/	.	.	.
8EE/] 8GG/] 8C/]	.	4c/ 4e/ 4g/	.
4EE/ 4GG/ 4C/	.	.	.
.	.	4e/ 4g/ 4cc/	.
4EE/ 4GG/ 4C/	.	.	.
.	.	4g\ 4cc\ 4een\	.
[8EE/ [8GG/ [8C/	.	.	.
8EE/] 8GG/] 8C/]	.	4cc\ 4ee\ 4gg\	.
4EE/ 4GG/ 4C/	.	.	.
.	.	8ee\ 8gg\ 8ccc\	.
*clefG2	*	*	*
=21	=21	=21	=21
*	*	*^	*
(2.en/ 2.g/	.	2.r	([4.cc\	p
.	.	.	4cc\]	.
.	.	.	8ddn\	.
2.f/) 2.a-/	.	[4.dd/	2.bn\	.
.	.	8.dd/L]	.	.
.	.	16cc/L	.	.
.	.	16een/	.	.
.	.	16dd/JJ)	.	.
*clefF4	*	*	*	*
*	*	*v	*v	*
=22	=22	=22	=22
4r	.	8En/ 8G/ 8c/	.
.	.	4G/ 4c/ 4en/	.
[8EEn/ [8GG/ [8C/	.	.	ff
8EE/] 8GG/] 8C/]	.	4c/ 4e/ 4g/	.
4EE/ 4GG/ 4C/	.	.	.
.	.	4e/ 4g/ 4cc/	.
4EE/ 4GG/ 4C/	.	.	.
.	.	4g\ 4cc\ 4een\	.
[8EE/ [8GG/ [8C/	.	.	.
8EE/] 8GG/] 8C/]	.	4cc\ 4ee\ 4gg\	.
4EE/ 4GG/ 4C/	.	.	.
.	.	8ee\ 8gg\ 8ccc\	.
*clefG2	*	*	*
=23	=23	=23	=23
2.en/ 2.g/	.	([4.cc\	p
.	.	4cc\]	.
.	.	8dd-\	.
.	.	cc8q/	.
[2.e-/ [2.g/	.	[4.dd-\	.
.	.	4dd-\]	.
.	.	16cc\LL	.
.	.	16dd-\JJ)	.
=24	=24	=24	=24
8e-\] 8g\L]	.	4.gg\ 4.bb-\	.
8ee-\	.	.	.
8ee-\J	.	.	.
8ee-\L	.	4r	.
8ee-\	.	.	.
8ee-\J	.	8r	.
8ee-\L	.	2.r	.
8ee-\	.	.	.
8ee-\J	.	.	.
8ee-\L	.	.	.
8ee-\	.	.	.
8ee-\J	.	.	.
=25	=25	=25	=25
8r	.	4.aa-\ 4.ccc-\	.
8ee-\L	.	.	.
8ee-\J	.	.	.
8a-\ (8cc-\L	.	4r	.
8ee-\)	.	.	.
8ee-\J	.	8r	.
8ee-\L	.	2.r	.
8ee-\	.	.	.
8ee-\J	.	.	.
8ee-\L	.	.	.
8ee-\	.	.	.
8ee-\J	.	.	.
=26	=26	=26	=26
8r	.	1.aa- 1.ccc- (1.fff-	.
8ee-\L	.	.	.
8ee-\J	.	.	.
8a-\ 8cc-\L	.	.	.
8ee-\	.	.	.
8ee-\J	.	.	.
8a-\ 8cc-\L	.	.	.
8ee-\	.	.	.
8ee-\J	.	.	.
8a-\ 8cc-\L	.	.	.
8ee-\	.	.	.
8ee-\J	.	.	.
=27	=27	=27	=27
8g/ 8b-/L	.	4gg\ 4bb-\ 4eee-\)	.
8e-/	.	.	.
8e-/J	.	8r	.
8e-/L	.	4r	.
8e-/	.	.	.
8e-/J	.	8r	.
8e-/L	.	4r	.
8e-/	.	.	.
8e-/J	.	8r	.
8e-/L	.	[4gg\ [4bb-\	.
8e-/	.	.	.
8e-/J	.	16gg\] 16bb-\LL]	.
.	.	16gg\ 16bb-\JJ	.
=28	=28	=28	=28
8e-/L	.	4aa-\ (4ccc-\	.
8e-/	.	.	.
8e-/J	.	8gg\ 8bb-\)	.
8e-/L	.	4r	.
8e-/	.	.	.
8e-/J	.	8g/ 8b-/	.
8e-/L	.	4r	.
8e-/	.	.	.
8e-/J	.	8G/ 8B-/	.
8B-/ 8d-/L	.	8r	.
8e-/	.	8.r	.
8e-/J	.	.	.
.	.	16gg\ 16bb-\	.
=29	=29	=29	=29
8e-/L	.	4bb-\ (4ddd-\	.
8e-/	.	.	.
8e-/J	.	8aa-\ 8ccc-\)	.
8e-/L	.	4r	.
8e-/	.	.	.
8e-/J	.	8a-\ 8cc-\	.
8e-/L	.	4r	.
8e-/	.	.	.
8e-/J	.	8A-/ 8c-/	.
8A-/ 8c-/L	.	8r	.
8e-/	.	8.r	.
8e-/J	.	.	.
.	.	16aa-\ 16ccc-\	.
=30	=30	=30	=30
8r	.	1.aa- 1.ccc- (1.fff-	.
8e-/L	.	.	.
8e-/J	.	.	.
8A-/ 8c-/L	.	.	.
8e-/	.	.	.
8e-/J	.	.	.
8A-/ 8c-/L	.	.	.
8e-/	.	.	.
8e-/J	.	.	.
8A-/ 8c-/L	.	.	.
8e-/	.	.	.
8e-/J	.	.	.
*clefF4	*	*	*
=31	=31	=31	=31
8r	.	4gg\ 4bb-\ 4eee-\)	.
8e-\L	.	.	.
8e-\J	.	8r	.
8G\ 8B-\L	.	4r	.
8e-\	.	.	.
8e-\J	.	8r	.
8r	.	2.g-/ 2.an/ 2.ee-/	.
8e-\L	.	.	.
8e-\J	.	.	.
8G-\ 8An\L	.	.	.
8e-\	.	.	.
8e-\J	.	.	.
=32	=32	=32	=32
8r	.	4f/ 4a-/ 4ddn/	.
8e-\L	.	.	.
8e-\J	.	8r	.
8F\ 8A-\L	.	4r	.
8e-\	.	.	.
8e-\J	.	8r	.
8r	.	4.en/ 4.gn/ 4.dd-/	.
8e-\L	.	.	.
8e-\J	.	.	.
8En\ 8Gn\L	.	4r	.
8e-\	.	.	.
8e-\J	.	8r	.
=33	=33	=33	=33
8r	.	4.e-/ 4.g/ 4.dd-/	pp
8E-\L	.	.	.
8E-\J	.	.	.
8E-\L	.	4r	.
8E-\	.	.	.
8E-\J	.	8r	.
8E-\L	.	2.r	.
8E-\	.	.	.
8E-\J	.	.	.
8E-\L	.	.	.
8E-\	.	.	.
8E-\J	.	.	.
=34	=34	=34	=34
8r	.	4.G/ 4.B-/ 4.d-/	.
8EE-/L	.	.	.
.	.	.	pp
8EE-/J	.	.	.
8EE-/L	.	4r	.
8EE-/	.	.	.
8EE-/J	.	8r	.
8EE-/L	.	2.r	.
8EE-/	.	.	.
8EE-/J	.	.	.
8EE-/L	.	.	.
8EE-/	.	.	.
8EE-/J	.	.	.
=35	=35	=35	=35
8AAA-/L	.	2.r	.
8CC/ 8EE-/ 8AA-/	.	.	.
8AAA-/J	.	.	.
8CC/ 8EE-/ 8AA-/L	.	.	.
8AAA-/	.	.	.
8CC/ 8EE-/ 8AA-/J	.	.	.
8AAA-/L	.	4r	.
8CC/ 8EE-/ 8AA-/	.	.	.
8AAA-/J	.	8r	.
*	*	*clefF4	*clefF4
8CC/ 8EE-/ 8AA-/L	.	[4C\ ([4c\	.
8AAA-/	.	.	.
8CC/ 8EE-/ 8AA-/J	.	16C\] 16c\LL]	.
.	.	16E-\ 16e-\JJ	.
*	*	*clefG2	*clefG2
=36	=36	=36	=36
(8AAA-/L	.	4.A-/ 4.a-/	.
8CC/ 8EE-/ 8AA-/	.	.	.
8AAA-/J	.	.	.
8CC/ 8EE-/ 8AA-/L	.	[4c/ [4cc/	.
8AAA-/	.	.	.
8CC/ 8EE-/ 8AA-/J	.	16c/] 16cc/LL]	.
.	.	16A-/ 16a-/JJ	.
8BBB-/L	.	4.G/ 4.g/	.
8DD-/ 8EE-/ 8BB-/	.	.	.
8BBB-/J	.	.	.
8DD-/ 8EE-/ 8BB-/L	.	[4B-/ [4b-/	.
8BBB-/	.	.	.
8DD-/) 8EE-/ 8BB-/J	.	16B-/] 16b-/LL]	.
.	.	16G/ 16g/JJ)	.
=37	=37	=37	=37
8CC/L	.	4.A-/ (4.a-/	.
8EE-/ 8AA-/ 8C/	.	.	.
8CC/J	.	.	.
*	*	*clefF4	*clefF4
8EE-/ 8AA-/ 8C/L	.	2.E-\ 2.e-\)	.
8CC/	.	.	.
8EE-/ 8AA-/ 8C/J	.	.	.
8CC/L	.	.	.
8EE-/ 8AA-/ 8C/	.	.	.
8CC/J	.	.	.
8AA-/L	.	[4F\ ([4f\	.
8DD-/	.	.	.
8AA-/J	.	16F\] 16f\LL]	.
.	.	16D-\ 16d-\JJ	.
=38	=38	=38	=38
(8EE-/L	.	4.C\ 4.c\	.
8AA-/	.	.	.
8EE-/J	.	.	.
8AA-/L	.	[4E-\ [4e-\	.
8EE-/	.	.	.
8AA-/J	.	16E-\] 16e-\LL]	.
.	.	16C\ 16c\JJ	.
8EE-/L	.	4.BB-\ 4.B-\	.
8GG/	.	.	.
8EE-/J	.	.	.
8GG/L	.	[4E-\ [4e-\	.
8EE-/	.	.	.
8GG/J)	.	16E-\] 16e-\LL]	.
.	.	16D-\ 16d-\JJ)	.
=39	=39	=39	=39
8AA-\L	.	(4.c\	.
8C\ 8E-\ 8A-\	.	.	.
8AA-\J	.	.	.
8C\ 8E-\ 8A-\L	.	2.e-\)	.
8AA-\	.	.	.
8C\ 8E-\ 8A-\J	.	.	.
8AA-\L	.	.	.
8C\ 8E-\ 8A-\	.	.	.
8AA-\J	.	.	.
*	*	*clefG2	*clefG2
8C\ 8E-\ 8A-\L	.	[4c/ ([4cc/	.
8AA-\	.	.	.
8C\ 8E-\ 8A-\J	.	16c/] 16cc/LL]	.
.	.	16e-/ 16ee-/JJ	.
=40	=40	=40	=40
(8AA-\L	.	4.a-\ 4.aa-\	.
8C\ 8E-\ 8A-\	.	.	.
8AA-\J	.	.	.
8C\ 8E-\ 8A-\L	.	[4cc\ [4ccc\	.
8AA-\	.	.	.
8C\ 8E-\ 8A-\J	.	16cc\] 16ccc\LL]	.
.	.	16a-\ 16aa-\JJ	.
8BB-\L	.	4.g\ 4.gg\	.
8D-\ 8E-\ 8B-\	.	.	.
8BB-\J	.	.	.
8D-\ 8E-\ 8B-\L	.	[4b-\ [4bb-\	.
8BB-\	.	.	.
8D-\ 8E-\ 8B-\J)	.	16b-\] 16bb-\LL]	.
.	.	16g\ 16gg\JJ)	.
=41	=41	=41	=41
1.C 1.E- 1.A- 1.c	.	4.a-\ (4.aa-\	p
.	.	[2.e-\ [2.ee-\)	.
.	.	4.e-\] 4.ee-\]	.
=42	=42	=42	=42
*^	*	*	*
(4.A-/	1.D- 1.F-	.	4.f-/ (4.ff-/	f
[2.B--/)	.	.	[2.d-/ [2.dd-/)	.
4.B--/]	.	.	4.d-/] 4.dd-/]	.
*v	*v	*	*	*
=43	=43	=43	=43
1.E- 1.A- 1.c-	.	[2.cc-\	p
.	.	4.cc-\]	.
.	.	(4b-\	.
.	.	8a-\)	.
=44	=44	=44	=44
.	.	(an8q/	.
1.E- 1.G 1.d-	.	1.b-)	.
=45	=45	=45	=45
.	.	(ff-8q/	.
1.r	.	1.ee-)	.
=46	=46	=46	=46
.	.	(fff-8q/	.
1.r	.	1.eee-)	.
=47	=47	=47	=47
1.r	.	8fff-\L	pp
.	.	8eee-\	.
.	.	8ddd-\J	.
.	.	8ccc-\L	.
.	.	8bb-\	.
.	.	8aa-\J	.
.	.	8gg\L	.
.	.	8gg-\	.
.	.	8ff-\J	.
.	.	8ee-\L	.
.	.	8dd-\	.
.	.	8cc-\J	.
=48	=48	=48	=48
1.r	.	8b-/L	.
.	.	8a-/	.
.	.	8gn/J	.
.	.	8g-/L	.
.	.	8f-/	.
.	.	8e-/J	.
.	.	8d-/L	.
.	.	8c-/	.
.	.	8B-/J	.
*	*	*clefF4	*clefF4
.	.	8A-\L	.
.	.	8Gn\	.
.	.	8G-\J	.
=49	=49	=49	=49
2.r	.	8F-\L	.
.	.	8E-\	.
.	.	8D-\J	.
.	.	8C-/L	.
.	.	8BB-/	.
.	.	8AA-/J	.
4r	.	8GGn/L	.
.	.	8GG-/	.
8r	.	8FF-/J	.
8EE-/L	.	4r	.
(8DD-/	.	.	.
8CC-/J)	.	8r	.
=50	=50	=50	=50
8BBB-/L	.	1.r	.
8CC-/	.	.	.
8DD-/J	.	.	.
8EE-/L	.	.	.
8FF-/	.	.	.
8EE-/J	.	.	.
8DD-/L	.	.	.
8CC-/	.	.	.
8BBB-/J	.	.	.
8EE-/L	.	.	.
8DDn/	.	.	.
8EE-/J	.	.	.
=51	=51	=51	=51
16AAA-/LL	.	16A-\LL	f
16EE-/	.	16E-\	.
16AA-/	.	16C-\	.
16EE-/	.	16E-\	.
16AAA-/	.	16A-\	.
16EE-/JJ	.	16E-\JJ	.
16AAA-/LL	.	16c-\LL	.
16EE-/	.	16E-\	.
16AAA-/	.	16B-\	.
16EE-/	.	16E-\	.
16AAA-/	.	16A-\	.
16EE-/JJ	.	16E-\JJ	.
16AAA-/LL	.	16A-\LL	.
16EE-/	.	16E-\	.
16AA-/	.	16C-\	.
16EE-/	.	16E-\	.
16AAA-/	.	16A-\	.
16EE-/JJ	.	16E-\JJ	.
16AAA-/LL	.	16c-\LL	.
16EE-/	.	16E-\	.
16AAA-/	.	16B-\	.
16EE-/	.	16E-\	.
16AAA-/	.	16A-\	.
16EE-/JJ	.	16E-\JJ	.
*	*	*clefG2	*clefG2
=52	=52	=52	=52
16AAA-/LL	.	16f-/LL	.
16FF-/	.	16c-/	.
16AA-/	.	16A-/	.
16FF-/	.	16c-/	.
16AAA-/	.	16f-/	.
16FF-/JJ	.	16c-/JJ	.
16AAA-/LL	.	16a-/LL	.
16FF-/	.	16c-/	.
16AAA-/	.	16g-/	.
16FF-/	.	16c-/	.
16AAA-/	.	16f-/	.
16FF-/JJ	.	16c-/JJ	.
16AAA-/LL	.	16f-/LL	.
16FF-/	.	16c-/	.
16AA-/	.	16A-/	.
16FF-/	.	16c-/	.
16AAA-/	.	16f-/	.
16FF-/JJ	.	16c-/JJ	.
16AAA-/LL	.	16a-/LL	.
16FF-/	.	16c-/	.
16AAA-/	.	16g-/	.
16FF-/	.	16c-/	.
16AAA-/	.	16f-/	.
16FF-/JJ	.	16c-/JJ	.
=53	=53	=53	=53
[2.BBB--/ [2.BB--/	.	16dd-\LL	ff
.	.	16ff-\	.
.	.	16dd-\	.
.	.	16ff-\	.
.	.	16dd-\	.
.	.	16ff-\JJ	.
.	.	16dd-\LL	.
.	.	16ff-\	.
.	.	16dd-\	.
.	.	16ff-\	.
.	.	16dd-\	.
.	.	16ff-\JJ	.
4.BBB--/] 4.BB--/]	.	16dd-\LL	.
.	.	16ff-\	.
.	.	16dd-\	.
.	.	16ff-\	.
.	.	16dd-\	.
.	.	16ff-\JJ	.
8BBB-'/ 8BB-'/L	.	16dd-\LL	.
.	.	16ff-\	.
8DD-'/	.	16b-\	.
.	.	16dd-\	.
8FF-'/J	.	16g\	.
.	.	16b-\JJ	.
=54	=54	=54	=54
8GG'/L	.	16f-/LL	.
.	.	16g/	.
8BB-'/	.	16d-/	.
.	.	16f-/	.
8D-'/J	.	16B-/	.
.	.	16d-/JJ	.
8F-'\L	.	16A-/LL	.
.	.	16B-/	.
8F-'\	.	16d-/	.
.	.	16B-/	.
8F-'\J	.	16A-/	.
.	.	16B-/JJ	.
(4.F-\	.	16r	.
.	.	16A-/LL	.
.	.	16d-/	.
.	.	16B-/	.
.	.	16A-/	.
.	.	16d-/JJ	.
4.E-\)	.	16r	.
.	.	16G/LL	.
.	.	16d-/	.
.	.	16B-/	.
.	.	16G/	.
.	.	16d-/JJ	.
=55	=55	=55	=55
16AA-\LL	.	16a-/LL	f
16E-\	.	16e-/	.
16A-\	.	16c-/	.
16E-\	.	16e-/	.
16AA-\	.	16a-/	.
16E-\JJ	.	16e-/JJ	.
16AA-\LL	.	16cc-/LL	.
16E-\	.	16e-/	.
16AA-\	.	16b-/	.
16E-\	.	16e-/	.
16AA-\	.	16a-/	.
16E-\JJ	.	16e-/JJ	.
16AA-\LL	.	16a-/LL	.
16E-\	.	16e-/	.
16A-\	.	16c-/	.
16E-\	.	16e-/	.
16AA-\	.	16a-/	.
16E-\JJ	.	16e-/JJ	.
16AA-\LL	.	16cc-/LL	.
16E-\	.	16e-/	.
16AA-\	.	16b-/	.
16E-\	.	16e-/	.
16AA-\	.	16a-/	.
16E-\JJ	.	16e-/JJ	.
=56	=56	=56	=56
16AA-\LL	.	16ff-\LL	.
16F-\	.	16cc-\	.
16A-\	.	16a-\	.
16F-\	.	16cc-\	.
16AA-\	.	16ff-\	.
16F-\JJ	.	16cc-\JJ	.
16AA-\LL	.	16aa-\LL	.
16F-\	.	16cc-\	.
16AA-\	.	16gg-\	.
16F-\	.	16cc-\	.
16AA-\	.	16ff-\	.
16F-\JJ	.	16cc-\JJ	.
16AA-\LL	.	16ff-\LL	.
16F-\	.	16cc-\	.
16A-\	.	16a-\	.
16F-\	.	16cc-\	.
16AA-\	.	16ff-\	.
16F-\JJ	.	16cc-\JJ	.
16AA-\LL	.	16aa-\LL	.
16F-\	.	16cc-\	.
16AA-\	.	16gg-\	.
16F-\	.	16cc-\	.
16AA-\	.	16ff-\	.
16F-\JJ	.	16cc-\JJ	.
=57	=57	=57	=57
[2.BB--\ [2.B--\	.	16ddd-\LL	ff
.	.	16fff-\	.
.	.	16ddd-\	.
.	.	16fff-\	.
.	.	16ddd-\	.
.	.	16fff-\JJ	.
.	.	16ddd-\LL	.
.	.	16fff-\	.
.	.	16ddd-\	.
.	.	16fff-\	.
.	.	16ddd-\	.
.	.	16fff-\JJ	.
4.BB--\] 4.B--\]	.	16ddd-\LL	.
.	.	16fff-\	.
.	.	16ddd-\	.
.	.	16fff-\	.
.	.	16ddd-\	.
.	.	16fff-\JJ	.
8BB-'\ 8B-'\L	.	16ddd-\LL	.
.	.	16fff-\	.
8D-'\ 8d-'\	.	16ddd-\	.
.	.	16fff-\	.
8F-'\ 8f-'\J	.	16ddd-\	.
.	.	16fff-\JJ	.
*clefG2	*	*	*
=58	=58	=58	=58
8G'/ 8g'/L	.	16ddd-\LL	.
.	.	16fff-\	.
8B-'/ 8b-'/	.	16bb-\	.
.	.	16ddd-\	.
8d-'/ 8dd-'/J	.	16aa-\	.
.	.	16bb-\JJ	.
8f-'\ 8ff-'\L	.	16aa-\LL	.
.	.	16bb-\	.
8f-'\ 8ff-'\	.	16ddd-\	.
.	.	16bb-\	.
8f-'\ 8ff-'\J	.	16aa-\	.
.	.	16bb-\JJ	.
4.f-\ (4.ff-\	.	16r	.
.	.	16aa-\LL	.
.	.	16ddd-\	.
.	.	16bb-\	.
.	.	16aa-\	.
.	.	16ddd-\JJ	.
4.e-\ 4.ee-\)	.	16r	.
.	.	16gg\LL	.
.	.	16ddd-\	.
.	.	16bb-\	.
.	.	16gg\	.
.	.	16ddd-\JJ	.
=59	=59	=59	=59
(4.a-/	.	16r	.
.	.	16ff-\LL	.
.	.	16ddd-\	.
.	.	16bb-\	.
.	.	16ff-\	.
.	.	16ddd-\JJ	.
4.g/)	.	16r	.
.	.	16ee-\LL	.
.	.	16ddd-\	.
.	.	16bb-\	.
.	.	16ee-\	.
.	.	16ddd-\JJ	.
(4.ff-\	.	16r	.
.	.	16aa-\LL	.
.	.	16ddd-\	.
.	.	16bb-\	.
.	.	16aa-\	.
.	.	16ddd-\JJ	.
4.ee-\)	.	16r	.
.	.	16gg\LL	.
.	.	16ddd-\	.
.	.	16bb-\	.
.	.	16gg\	.
.	.	16ddd-\JJ	ff
=60	=60	=60	=60
*	*	*8va	*
*^	*	*	*
16ddn/LL	[4.ddn\	.	8r	.
[16ffn/JJ	.	.	.	.
4ff/_ [4aa-/	.	.	16r	.
.	.	.	16ccc-\LL	.
.	.	.	16dddn\	.
.	.	.	16fff\JJ	.
4.ff/] 4.aa-/]	4.dd\]	.	16aaa-\LL	.
.	.	.	16fff\	.
.	.	.	16ddd\	.
.	.	.	16cccc-\	.
.	.	.	16bbb-\	.
.	.	.	16aaa-\JJ	.
16ee-/LL	2.ee-\	.	16ggg\LL	.
[16gg/JJ	.	.	16bbb-\	.
4gg/_	.	.	16aaa-\	.
.	.	.	16ggg\	.
.	.	.	16fff-\	.
.	.	.	16eee-\JJ	.
4.gg/]	.	.	16ddd-\LL	.
.	.	.	16fff-\	.
.	.	.	16eee-\	.
.	.	.	16ddd-\	.
.	.	.	16ccc-\	.
.	.	.	16bb-\JJ	.
*v	*v	*	*	*
=61	=61	=61	=61
4.a-\ (4.cc-\	.	16r	.
.	.	16aa-\LL	p
.	.	16ccc-\	.
.	.	16eee-\	.
.	.	16aaa-\	.
.	.	16aa-\JJ	.
4.dd-\ 4.ff-\	.	8.r	.
.	.	16aaa-\LL	.
.	.	16aa-\	.
.	.	16aaa-\JJ	.
4.cc-\ 4.ee-\)	.	8.r	.
.	.	16aaa-\LL	.
.	.	16aa-\	.
.	.	16aaa-\JJ	.
4.b-\ 4.dd-\ (4.ee-\	.	8.r	.
.	.	16ggg\LL	.
.	.	16gg\	.
.	.	16ggg\JJ	.
=62	=62	=62	=62
4.a-\ 4.cc-\)	.	16r	.
.	.	16aa-\LL	.
.	.	16ccc-\	.
.	.	16eee-\	.
.	.	16aaa-\	.
.	.	16aa-\JJ	.
*	*	*X8va	*
(4.d-/ 4.f-/	.	8.r	.
.	.	16aa-\LL	.
.	.	16a-\	.
.	.	16aa-\JJ	.
4.c-/ 4.e-/	.	8.r	.
.	.	16aa-\LL	.
.	.	16a-\	.
.	.	16aa-\JJ	.
4.B-/ 4.d-/ 4.e-/	.	8.r	.
.	.	16gg\LL	.
.	.	16g\	.
.	.	16gg\JJ	.
=63	=63	=63	=63
*	*	*8va	*
4.A-/) 4.c-/	.	16r	.
.	.	16aa-\LL	.
.	.	16ccc-\	.
.	.	16eee-\	.
.	.	16aaa-\	.
.	.	16aa-\JJ	.
*clefF4	*	*	*
4.D-\ (4.F-\	.	8.r	.
.	.	16aaa-\LL	.
.	.	16aa-\	.
.	.	16aaa-\JJ	.
4.C-\ 4.E-\	.	8.r	.
.	.	16aaa-\LL	.
.	.	16aa-\	.
.	.	16aaa-\JJ	.
4.BB-\ 4.D-\ 4.E-\)	.	8.r	.
.	.	16ggg\LL	.
.	.	16gg\	.
.	.	16ggg\JJ	.
=64	=64	=64	=64
2.AA-/	.	16aaa-\LL	.
.	.	16eee-\	.
.	.	16ccc-\	.
.	.	16eee-\	.
.	.	16aaa-\	.
.	.	16eee-\JJ	.
.	.	16ccc-\LL	.
.	.	16eee-\	.
.	.	16aaa-\	.
.	.	16eee-\	.
.	.	16ccc-\	.
.	.	16eee-\JJ	.
4.EE-/	.	16aaa-\LL	.
.	.	16eee-\	.
.	.	16ccc-\	.
.	.	16eee-\	.
.	.	16aaa-\	.
.	.	16eee-\JJ	.
4.CC-/	.	16aaa-\LL	.
.	.	16eee-\	.
.	.	16aaa-\	.
.	.	16eee-\	.
.	.	16aaa-\	.
.	.	16eee-\JJ	.
=65	=65	=65	=65
[2.AAA-/	.	[2.aaa-\	pp
4.AAA-/]	.	4.aaa-\]	.
*	*	*X8va	*
*	*	*clefF4	*clefF4
([4BBn/	.	([4Bn\	.
16BB/LL]	.	16B\LL]	.
16GG#/JJ)	.	16G#\JJ)	.
=66	=66	=66	=66
[2.DD#/	.	[2.D#\	.
4.DD#/]	.	4.D#\]	.
[4BBn/	.	([4Bn\	p
16BB/LL]	.	16B\LL]	.
16GG#/JJ	.	16G#\JJ	.
=67	=67	=67	=67
[2.EEn/	.	[2.En\	.
4.EE/]	.	4.E\]	.
[4GG#/	.	[4G#\	.
16GG#/LL]	.	16G#\LL]	.
16BBn/JJ	.	16Bn\JJ	.
*	*	*clefG2	*clefG2
=68	=68	=68	=68
4.En\	.	4.en/	.
[4G#\	.	[4g#/	.
16G#\LL]	.	16g#/LL]	.
16Bn\JJ	.	16bn/JJ	.
4.en\	.	4.een\	.
4.E\	.	4.e/)	.
=69	=69	=69	=69
2.D#\ 2.F#\ 2.Bn\	.	([4.bn\	.
.	.	4b\]	.
.	.	8cc#\	.
.	.	b8q/	.
2.En\ 2.Gn\ 2.A#\	.	[4.cc#\	.
.	.	8.cc#\L]	.
.	.	16b\L	.
.	.	16dd#\	.
.	.	16cc#\JJ)	.
=70	=70	=70	=70
4D#\ 4F#\ 4Bn\	.	4bn\	.
8r	.	8r	.
4r	.	4r	.
8r	.	8r	.
2.r	.	2.r	.
*clefG2	*	*	*
=71	=71	=71	=71
*k[]	*	*k[]	*k[]
*	*	*^	*
2.a\ 2.cc#\	.	2.r	([4.ff#\	.
.	.	.	4ff#\]	.
.	.	.	8gg#\	.
2.b\ 2.dd\	.	[4.gg#/	2.ee#\	.
.	.	8.gg#/L]	.	.
.	.	16ff#/L	.	.
.	.	16aa/	.	.
.	.	16gg#/JJ)	.	.
*	*	*v	*v	*
=72	=72	=72	=72
4a\ 4cc#\	.	4ff#\	.
8r	.	8r	.
4r	.	4r	.
8r	.	8r	.
2.r	.	2.r	.
*clefF4	*	*	*
=73	=73	=73	=73
2.G#\ 2.B\	.	([4.e/	.
.	.	4e/]	.
.	.	8f#/	.
*	*	*^	*
2.A\ 2.cn\	.	[4.f#/	2.d#\	.
.	.	8.f#/L]	.	.
.	.	16e/L	.	.
.	.	16g#/	.	.
.	.	16f#/JJ)	.	.
*	*	*v	*v	*
=74	=74	=74	=74
4.G#\ 4.B\	.	(4.e/	.
2.FF#/	.	2.A/ 2.c#/ 2.a/)	.
*	*	*^	*
4.AA/	.	[4f#/	4.A\ 4.c#\	.
.	.	16f#/LL]	.	.
.	.	16g#/JJ	.	.
*	*	*v	*v	*
=75	=75	=75	=75
2.BB/	.	2.G#/ 2.B/ 2.e/	p
2.BBB/	.	2.F#/ 2.A/ 2.d#/	.
*clefG2	*	*	*
=76	=76	=76	=76
*	*	*^	*
2.g#/ 2.b/	.	2.r	([4.ee\	pp
.	.	.	4ee\]	.
.	.	.	8ff#\	.
2.a/ 2.ccn/	.	[4.ff#/	2.dd#\	.
.	.	8.ff#/L]	.	.
.	.	16ee/L	.	.
.	.	16gg#/	.	.
.	.	16ff#/JJ)	.	.
=77	=77	=77	=77	=77
4.g#/ 4.b/	.	4.r	(4.ee\	.
*clefF4	*	*	*	*
(2.F#\ 2.f#\	.	2.r	2.a\ 2.cc#\ 2.aa\)	.
4.A\)	.	[4ff#/	4.a\ 4.cc#\	.
.	.	16ff#/LL]	.	.
.	.	16gg#/JJ	.	.
*	*	*v	*v	*
=78	=78	=78	=78
2.B\	.	2.g#/ 2.b/ 2.ee/	p
4BB/	.	4f#/ 4a/ 4dd#/	.
8r	.	8r	.
[4BB/	.	4r	f
16BB/LL]	.	8r	.
16GGn/JJ	.	.	.
=79	=79	=79	=79
[2.EE/	.	16b/LL	f
.	.	16gn/	.
.	.	16b/	.
.	.	16g/	.
.	.	16b/	.
.	.	16g/JJ	.
.	.	16b/LL	.
.	.	16g/	.
.	.	16b/	.
.	.	16g/	.
.	.	16b/	.
.	.	16g/JJ	.
4.EE/]	.	16b/LL	.
.	.	16g/	.
.	.	16b/	.
.	.	16g/	.
.	.	16b/	.
.	.	16g/JJ	.
[4GG/	.	16b/LL	.
.	.	16g/	.
.	.	16b/	.
.	.	16g/	.
16GG/LL]	.	16b/	.
16BB/JJ	.	16g/JJ	.
=80	=80	=80	=80
4.E\	.	16b/LL	.
.	.	16g/	.
.	.	16b/	.
.	.	16g/	.
.	.	16b/	.
.	.	16g/JJ	.
[4G\	.	16b/LL	.
.	.	16g/	.
.	.	16b/	.
.	.	16g/	.
16G\LL]	.	16b/	.
16B\JJ	.	16g/JJ	.
4.e\	.	16b/LL	.
.	.	16g/	.
.	.	16b/	.
.	.	16g/	.
.	.	16b/	.
.	.	16g/JJ	.
4.e\	.	16b/LL	.
.	.	16g/	.
.	.	16b/	.
.	.	16g/	.
.	.	16b/	.
.	.	16g/JJ	.
*clefG2	*	*	*
=81	=81	=81	=81
40%3f/LL	.	2.r	.
40%3g/	.	.	.
40%3b/	.	.	.
40%3g/	.	.	.
40%3f/JJ	.	.	.
40%3d/LL	.	.	.
40%3f/	.	.	.
40%3g/	.	.	.
40%3f/	.	.	.
40%3d/JJ	.	.	.
*clefF4	*	*	*
40%3B\LL	.	4r	.
40%3d\	.	.	.
40%3f\	.	.	.
40%3d\	.	.	.
.	.	8r	.
40%3B\JJ	.	.	.
40%3G\LL	.	[4b\	.
40%3B\	.	.	.
40%3d\	.	.	.
40%3B\	.	.	.
.	.	16b\LL]	.
40%3G\JJ	.	.	.
.	.	16dd\JJ	.
=82	=82	=82	=82
*Xtuplet	*	*	*
40%3F\LL	.	4.gg\	.
40%3G\	.	.	.
40%3B\	.	.	.
40%3G\	.	.	.
40%3F\JJ	.	.	.
40%3D\LL	.	[4bb\	.
40%3F\	.	.	.
40%3G\	.	.	.
40%3F\	.	.	.
.	.	16bb\LL]	.
40%3D\JJ	.	.	.
.	.	16ddd\JJ	.
*tuplet	*	*	*
(16BB/LL	.	4.gg\ 4.ggg\	.
16D/	.	.	.
16F/	.	.	.
16D/	.	.	.
16BB/	.	.	.
16GG/JJ)	.	.	.
*Xtuplet	*	*	*
(16FF/LL	.	4.gg\ 4.ggg\	.
16GG/	.	.	.
16BB/	.	.	.
16GG/	.	.	.
16FF/	.	.	.
16DD/JJ)	.	.	.
=83	=83	=83	=83
[2.CC/	.	40%3gg\ 40%3ggg\LL	.
.	.	40%3eee-\	.
.	.	40%3ggg\	.
.	.	40%3eee-\	.
.	.	40%3ccc\JJ	.
.	.	40%3gg\LL	.
.	.	40%3ccc\	.
.	.	40%3eee-\	.
.	.	40%3ccc\	.
.	.	40%3gg\JJ	.
4.CC/]	.	40%3ee-\LL	.
.	.	40%3gg\	.
.	.	40%3ccc\	.
.	.	40%3gg\	.
.	.	40%3ee-\JJ	.
[4EE-/	.	40%3cc\LL	.
.	.	40%3ee-\	.
.	.	40%3gg\	.
.	.	40%3ee-\	.
16EE-/LL]	.	.	.
.	.	40%3cc\JJ	.
16GG/JJ	.	.	.
=84	=84	=84	=84
*	*	*Xtuplet	*
4.C/	.	40%3g\LL	.
.	.	40%3cc\	.
.	.	40%3ee-\	.
.	.	40%3cc\	.
.	.	40%3g\JJ	.
[4E-\	.	40%3e-/LL	.
.	.	40%3g/	.
.	.	40%3cc/	.
.	.	40%3g/	.
16E-\LL]	.	.	.
.	.	40%3e-/JJ	.
16G\JJ	.	.	.
4.c\	.	40%3e-/LL	.
.	.	40%3g/	.
.	.	40%3cc/	.
.	.	40%3g/	.
.	.	40%3e-/JJ	.
4.c\	.	40%3e-/LL	.
.	.	40%3g/	.
.	.	40%3cc/	.
.	.	40%3g/	.
.	.	40%3e-/JJ	.
=85	=85	=85	=85
*tuplet	*	*	*
40%3d-\LL	.	2.r	.
40%3e-\	.	.	.
40%3g\	.	.	.
40%3e-\	.	.	.
40%3d-\JJ	.	.	.
40%3B-\LL	.	.	.
40%3d-\	.	.	.
40%3e-\	.	.	.
40%3d-\	.	.	.
40%3B-\JJ	.	.	.
*Xtuplet	*	*	*
40%3G\LL	.	4r	.
40%3B-\	.	.	.
40%3d-\	.	.	.
40%3B-\	.	.	.
.	.	8r	.
40%3G\JJ	.	.	.
40%3E-\LL	.	[4g/	.
40%3G\	.	.	.
40%3B-\	.	.	.
40%3G\	.	.	.
.	.	16g/LL]	.
40%3E-\JJ	.	.	.
.	.	16b-/JJ	.
=86	=86	=86	=86
40%3D-\LL	.	4.ee-\	.
40%3E-\	.	.	.
40%3G\	.	.	.
40%3E-\	.	.	.
40%3D-\JJ	.	.	.
40%3BB-/LL	.	[4gg\	.
40%3D-/	.	.	.
40%3E-/	.	.	.
40%3D-/	.	.	.
.	.	16gg\LL]	.
40%3BB-/JJ	.	.	.
.	.	16bb-\JJ	.
*tuplet	*	*	*
16GG/LL	.	4.ee-\ 4.eee-\	.
16BB-/	.	.	.
16D-/	.	.	.
16BB-/	.	.	.
16GG/	.	.	.
16EE-/JJ	.	.	.
*Xtuplet	*	*	*
16DD-/LL	.	4.ee-\ 4.eee-\	.
16EE-/	.	.	.
16GG/	.	.	.
16EE-/	.	.	.
16DD-/	.	.	.
16BBB-/JJ	.	.	.
=87	=87	=87	=87
*	*	*8va	*
*	*	*tuplet	*
[2.AAA-/	.	40%3eee-\LL	.
.	.	40%3aaa-\	.
.	.	40%3cccc\	.
.	.	40%3aaa-\	.
.	.	40%3eee-\JJ	.
*	*	*Xtuplet	*
.	.	40%3ccc\LL	.
.	.	40%3eee-\	.
.	.	40%3aaa-\	.
.	.	40%3eee-\	.
.	.	40%3ccc\JJ	.
4.AAA-/]	.	40%3aa-\LL	.
.	.	40%3ccc\	.
.	.	40%3eee-\	.
.	.	40%3ccc\	.
.	.	40%3aa-\JJ	.
*	*	*X8va	*
[4CC/	.	40%3ee-\LL	.
.	.	40%3aa-\	.
.	.	40%3ccc\	.
.	.	40%3aa-\	.
16CC/LL]	.	.	.
.	.	40%3ee-\JJ	.
16EE-/JJ	.	.	.
=88	=88	=88	=88
4.AA-/	.	40%3cc\LL	.
.	.	40%3ee-\	.
.	.	40%3aa-\	.
.	.	40%3ee-\	.
.	.	40%3cc\JJ	.
[4C\	.	40%3a-\LL	.
.	.	40%3cc\	.
.	.	40%3ee-\	.
.	.	40%3cc\	.
16C\LL]	.	.	.
.	.	40%3a-\JJ	.
16E-\JJ	.	.	.
4.A-\	.	40%3e-/LL	.
.	.	40%3a-/	.
.	.	40%3cc/	.
.	.	40%3a-/	.
.	.	40%3e-/JJ	.
4.A-\	.	40%3c/LL	.
.	.	40%3e-/	.
.	.	40%3a-/	.
.	.	40%3e-/	.
.	.	40%3c/JJ	.
=89	=89	=89	=89
40%3An\LL	.	[2.g-/	.
40%3c\	.	.	.
40%3e-\	.	.	.
40%3c\	.	.	.
40%3A\JJ	.	.	.
40%3G-\LL	.	.	.
40%3A\	.	.	.
40%3c\	.	.	.
40%3A\	.	.	.
40%3G-\JJ	.	.	.
40%3E-\LL	.	4.g-/]	.
40%3G-\	.	.	.
40%3A\	.	.	.
40%3G-\	.	.	.
40%3E-\JJ	.	.	.
40%3C\LL	.	[4cc\	.
40%3E-\	.	.	.
40%3G-\	.	.	.
40%3E-\	.	.	.
.	.	16cc\LL]	.
40%3C\JJ	.	.	.
.	.	16ee-\JJ	.
=90	=90	=90	=90
*k[b-e-a-d-]	*	*k[b-e-a-d-]	*k[b-e-a-d-]
40%3AAn/LL	.	4.gg-\	.
40%3C/	.	.	.
40%3E-/	.	.	.
40%3C/	.	.	.
40%3AA/JJ	.	.	.
*	*	*8va	*
40%3GG-/LL	.	[4ccc\	.
40%3AA/	.	.	.
40%3C/	.	.	.
40%3AA/	.	.	.
.	.	16ccc\LL]	.
40%3GG-/JJ	.	.	.
.	.	16eee-\JJ	.
*tuplet	*	*	*
16EE-/LL	.	4.ggg-\	.
16GG-/	.	.	.
16AA/	.	.	.
16GG-/	.	.	.
16EE-/	.	.	.
16CC/JJ	.	.	.
*Xtuplet	*	*	*
16AAAn/LL	.	4.ggg-\	.
16CC/	.	.	.
16EE-/	.	.	.
16GG-/	.	.	.
16EE-/	.	.	.
16CC/JJ	.	.	.
=91	=91	=91	=91
16AAA-/LL	.	[4.ggg-\	.
16CC/	.	.	.
16EE-/	.	.	.
16GG-/	.	.	.
16EE-/	.	.	.
16CC/JJ	.	.	.
16AAAn/LL	.	8ggg-\L]	.
16CC/	.	.	.
16EE-/	.	(16ggg-\L	.
16GG-/	.	16eee-\	.
16EE-/	.	16ccc\	.
16CC/JJ	.	16gg-\JJ)	.
16AAA-/LL	.	[4.ggg-\	.
16CC/	.	.	.
16EE-/	.	.	.
16GG-/	.	.	.
16EE-/	.	.	.
16CC/JJ	.	.	.
16AAAn/LL	.	8ggg-\L]	.
16CC/	.	.	.
*	*	*X8va	*
16EE-/	.	(16gg-\L	.
16GG-/	.	16ee-\	.
16EE-/	.	16cc\	.
16CC/JJ	.	16g-\JJ)	.
=92	=92	=92	=92
16AAA-/LL	.	[4.gg-\	.
16CC/	.	.	.
16EE-/	.	.	.
16GG-/	.	.	.
16EE-/	.	.	.
16CC/JJ	.	.	.
16AAAn/LL	.	8gg-\]	.
16CC/	.	.	.
16EE-/	.	(16g-/LL	.
16GG-/	.	16e-/	.
16EE-/	.	16c/	.
16CC/JJ	.	16G-/JJ)	.
16AAA-/LL	.	8g-/L	.
16CC/	.	.	.
16EE-/	.	(16g-/L	.
16GG-/	.	16e-/	.
16EE-/	.	16c/	.
16CC/JJ	.	16G-/JJ)	.
16AAAn/LL	.	8g-/L	.
16CC/	.	.	.
16EE-/	.	(16g-/L	.
16GG-/	.	16e-/	.
16EE-/	.	16c/	.
16CC/JJ	.	16G-/JJ)	.
=93	=93	=93	=93
8AAA-/ 8AA-/	.	4g-/	.
8A-\L	.	.	.
8A-\J	.	8r	.
8A-\L	.	4r	.
8A-\	.	.	.
8A-\J	.	8r	.
8A-\L	.	2.r	.
8A-\	.	.	.
8A-\J	.	.	.
8A-\L	.	.	.
8A-\	.	.	.
8A-\J	.	.	.
=94	=94	=94	=94
8r	.	4.c/ 4.e-/	.
8A-\L	.	.	.
8A-\J	.	.	.
8A-\L	.	4r	.
8A-\	.	.	.
8A-\J	.	8r	.
8G-\L	.	4.cc\ 4.ee-\	.
8A-\	.	.	.
8A-\J	.	.	.
8A-\L	.	4r	.
8A-\	.	.	.
8A-\J	.	8r	.
=95	=95	=95	=95
8r	.	4.d-/ 4.f/	.
8A-\L	.	.	.
8A-\J	.	.	.
8A-\L	.	4r	.
8A-\	.	.	.
8A-\J	.	8r	.
8F\L	.	4.dd-\ 4.ff\	.
8A-\	.	.	.
8A-\J	.	.	.
8A-\L	.	4r	.
8A-\	.	.	.
8A-\J	.	8r	.
=96	=96	=96	=96
8r	.	1.d- 1.f (1.b-	.
8A-\L	.	.	.
8A-\J	.	.	.
8D-\ 8F\L	.	.	.
8A-\	.	.	.
8A-\J	.	.	.
8D-\ 8F\L	.	.	.
8A-\	.	.	.
8A-\J	.	.	.
8D-\ 8F\L	.	.	.
8A-\	.	.	.
8A-\J	.	.	.
=97	=97	=97	=97
8C\ 8E-\L	.	4c/ 4e-/ 4a-/)	.
8A-\	.	.	.
8A-\J	.	8r	.
8A-\L	.	4r	.
8A-\	.	.	.
8A-\J	.	8r	.
8A-\L	.	4r	.
8A-\	.	.	.
8A-\J	.	8r	.
8A-\L	.	[4c/ [4e-/	.
8A-\	.	.	.
8A-\J	.	16c/] 16e-/LL]	.
.	.	16c/ 16e-/JJ	.
=98	=98	=98	=98
8A-\L	.	4d-/ (4f/	.
8A-\	.	.	.
8A-\J	.	8c/ 8e-/)	.
8A-\L	.	8r	.
8A-\	.	8r	.
8A-\J	.	8cc\ 8ee-\	.
8A-\L	.	8r	.
8A-\	.	8r	.
8A-\J	.	8ccc\ 8eee-\	.
8E-\ 8G-\L	.	8r	.
8A-\	.	8.r	.
8A-\J	.	.	.
.	.	16c/ 16e-/	.
=99	=99	=99	=99
8A-\L	.	4e-/ (4g-/	.
8A-\	.	.	.
8A-\J	.	8d-/ 8f/)	.
8A-\L	.	8r	.
8A-\	.	8r	.
8A-\J	.	8dd-\ 8ff\	.
8A-\L	.	8r	.
8A-\	.	8r	.
8A-\J	.	8ddd-\ 8fff\	.
8D-\ 8F\L	.	8r	.
8A-\	.	8.r	.
8A-\J	.	.	.
.	.	16d-/ 16f/	.
=100	=100	=100	=100
8r	.	1.d- 1.f (1.b-	.
8A-\L	.	.	.
8A-\J	.	.	.
8D-\ 8F\L	.	.	.
8A-\	.	.	.
8A-\J	.	.	.
8D-\ 8F\L	.	.	.
8A-\	.	.	.
8A-\J	.	.	.
8D-\ 8F\L	.	.	.
8A-\	.	.	.
8A-\J	.	.	.
=101	=101	=101	=101
8r	.	4c/ 4e-/ 4a-/)	.
8A-\L	.	.	.
8A-\J	.	8r	.
8C\ 8E-\L	.	4r	.
8A-\	.	.	.
8A-\J	.	8r	.
8r	.	2.d-/ 2.f-/ (2.b--/	.
8A-\L	.	.	.
8A-\J	.	.	.
8D-\ 8F-\L	.	.	.
8A-\	.	.	.
8A-\J	.	.	.
=102	=102	=102	=102
8r	.	4c/ 4e-/ 4a-/)	.
8A-\L	.	.	.
8A-\J	.	8r	.
8C\ 8E-\L	.	4r	.
8A-\	.	.	.
8A-\J	.	8r	.
8r	.	2.dd-\ 2.ff-\ (2.bb--\	.
8A-\L	.	.	.
8A-\J	.	.	.
8D-\ 8F-\L	.	.	.
8A-\	.	.	.
8A-\J	.	.	.
=103	=103	=103	=103
8r	.	4.cc\ 4.ee-\ 4.aa-\)	.
8A-\L	.	.	.
8A-\J	.	.	.
8C\ 8E-\L	.	4r	.
8A-\	.	.	.
8A-\J	.	8r	.
8r	.	4.c-/ 4.dn/ 4.a-/	.
8A-\L	.	.	.
8A-\J	.	.	.
8C-\ 8Dn\L	.	4r	.
8A-\	.	.	.
8A-\J	.	8r	.
=104	=104	=104	=104
8r	.	4.B-/ 4.d-/ 4.gn/	pp
8A-\L	.	.	.
8A-\J	.	.	.
8BB-\ 8D-\L	.	4r	.
8A-\	.	.	.
8A-\J	.	8r	.
8r	.	4.An/ 4.c/ 4.g-/	.
8A-\L	.	.	.
8A-\J	.	.	.
8AAn\ 8C\L	.	4r	.
8A-\	.	.	.
8A-\J	.	8r	.
=105	=105	=105	=105
*^	*	*	*
8r	8r	.	4A-/ 4c/ 4g-/	.
8AA-/L	4AA-\	.	.	.
8GGn/J	.	.	8r	.
8AA-/L	4AA-\	.	4r	.
8BB-/	.	.	.	.
8AA-/J	[8AA-\	.	8r	.
2.AA-/]	8GG-\L	.	(8ee-\L	.
.	8AA-\	.	8ff\	.
.	8GG-\J	.	8ee-\J	.
.	8FF\L	.	8dd-\L	.
.	8GG-\	.	8ee-\	.
.	8FF\J	.	8dd-\J	.
=106	=106	=106	=106	=106
8EE-/	8EE-\L	.	8cc\L	.
4AA-/	8AA-\	.	8gg-\J)	.
.	8GGn\J	.	8r	.
4AA-/	8AA-\L	.	4r	.
.	8BB-\	.	.	.
[8AA-/	8AA-\J	.	8r	.
2.AA-/]	8EE-\L	.	(8gg-\L	.
.	8FF\	.	8aa-\	.
.	8EE-\J	.	8gg-\J	.
.	8DD-\L	.	8ff\L	.
.	8EE-\	.	8gg-\	.
.	8DD-\J	.	8ff\J	.
=107	=107	=107	=107	=107
8CC/	8CC\L	.	8ee-\L	.
4AA-/	8AA-\	.	8eee-\J)	.
.	8GG\J	.	8r	.
4AA-/	8AA-\L	.	4r	.
.	8BB-\	.	.	.
8AA-/	[8AA-\J	.	8r	.
2.AA-/]	8CC\L	.	(8eee-\L	.
.	8DD-\	.	8fff\	.
.	8CC\J	.	8eee-\J	.
.	8BBB-\L	.	8ddd-\L	.
.	8CC\	.	8eee-\	.
.	8BBB-\J	.	8ddd-\J	.
*v	*v	*	*	*
=108	=108	=108	=108
8AAA-/L	.	8ccc\L	f
8GGG/	.	8ddd-\	.
8AAA-/J	.	8ccc\J	.
8BBB-/L	.	8bb-\L	.
8AAA-/	.	8ccc\	.
8BBB-/J	.	8bb-\J	.
8CC-/L	.	8aa-\L	.
8BBB-/	.	8bb-\	.
8CC-/J	.	8aa-\J	.
8CCn/L	.	8gg-\L	.
8BBBn/	.	8aa-\	.
8CC/J	.	8gg-\J	.
=109	=109	=109	=109
8DD-/L	.	4ff\)	p
8FF/ 8AA-/ 8D-/	.	.	.
8DD-/J	.	8r	.
8FF/ 8AA-/ 8D-/L	.	4r	.
8DD-/	.	.	.
8FF/ 8AA-/ 8D-/J	.	8r	.
8DD-/L	.	4r	.
8FF/ 8AA-/ 8D-/	.	.	.
8DD-/J	.	8r	.
8FF/ 8AA-/ 8D-/L	.	[4F/ ([4f/	.
8DD-/	.	.	.
8FF/ 8AA-/ 8D-/J	.	16F/] 16f/LL]	.
.	.	16A-/ 16a-/JJ	.
=110	=110	=110	=110
(8DD-/L	.	4.d-/ 4.dd-/	.
8FF/ 8AA-/ 8D-/	.	.	.
8DD-/J	.	.	.
8FF/ 8AA-/ 8D-/L	.	[4f/ [4ff/	.
8DD-/	.	.	.
8FF/ 8AA-/ 8D-/J	.	16f/] 16ff/LL]	.
.	.	16d-/ 16dd-/JJ	.
8EE-/L	.	4.c/ 4.cc/	.
8GG-/ 8AA-/ 8E-/	.	.	.
8EE-/J	.	.	.
8GG-/ 8AA-/ 8E-/L	.	[4e-/ [4ee-/	.
8EE-/	.	.	.
8GG-/) 8AA-/ 8E-/J	.	16e-/] 16ee-/LL]	.
.	.	16c/ 16cc/JJ)	.
=111	=111	=111	=111
(8FF\L	.	4.d-/ (4.dd-/	.
8AA-\ 8D-\ 8F\	.	.	.
8FF\J	.	.	.
8AA-\ 8D-\ 8F\L	.	[4.A-/ [4.a-/)	.
8FF\	.	.	.
8AA-\ 8D-\ 8F\J	.	.	.
8FF\L	.	4.A-/] 4.a-/]	.
8AA-\ 8D-\ 8F\	.	.	.
8FF\J	.	.	.
8D-\ 8E-\ 8G-\L	.	(4B-/ [4b-/	.
8GG-\	.	.	.
8D-\ 8E-\ 8G-\J)	.	16b-/LL]	.
.	.	16g-/JJ)	.
=112	=112	=112	=112
(8AA-\L	.	(4.f/	.
8D-\ 8F\ 8A-\	.	.	.
8AA-\J	.	.	.
8D-\ 8F\ 8A-\L	.	[4a-/	.
8AA-\	.	.	.
8D-\ 8F\ 8A-\J	.	16a-/LL]	.
.	.	16f/JJ	.
8AA-\L	.	4.e-/	.
8C\ 8E-\ 8A-\	.	.	.
8AA-\J	.	.	.
8A-\L	.	[4g-/	.
8AA-\	.	.	.
8C\ 8E-\ 8A-\J)	.	16g-/LL]	.
.	.	16e-/JJ)	.
=113	=113	=113	=113
8AAn\L	.	(4.c/	f
8C\ 8F\ 8An\	.	.	.
8AA\J	.	.	.
8C\ 8F\ 8A\L	.	[4.f/)	.
8AA\	.	.	.
8C\ 8F\ 8A\J	.	.	.
8AA\L	.	4.f/]	.
8C\ 8F\ 8A\	.	.	.
8AA\J	.	.	.
8D-\ 8F\ 8B-\L	.	[4d-/ ([4dd-/	p
8BB-\	.	.	.
8D-\ 8F\ 8B-\J	.	16d-/] 16dd-/LL]	.
.	.	16f/ 16ff/JJ	.
=114	=114	=114	=114
8BB-\L	.	4.b-\ 4.bb-\	.
8D-\ 8F\ 8B-\	.	.	.
8BB-\J	.	.	.
8D-\ 8F\ 8B-\L	.	[4dd-\ [4ddd-\	.
8BB-\	.	.	.
8D-\ 8F\ 8B-\J	.	16dd-\] 16ddd-\LL]	.
.	.	16b-\ 16bb-\JJ	.
8C\L	.	4.an\ 4.aan\	.
8E-\ 8F\ 8c\	.	.	.
8C\J	.	.	.
8E-\ 8F\ 8c\L	.	[4cc\ [4ccc\	.
8C\	.	.	.
8E-\ 8F\ 8c\J	.	16cc\] 16ccc\LL]	.
.	.	16a\ 16aa\JJ)	.
=115	=115	=115	=115
8D-\L	.	4.b-\ (4.bb-\	.
8F\ 8B-\ 8d-\	.	.	.
8D-\J	.	.	.
8F\ 8B-\ 8d-\L	.	[4.f\ [4.ff\)	.
8D-\	.	.	.
8F\ 8B-\ 8d-\J	.	.	.
8D-\L	.	4.f\] 4.ff\]	.
8F\ 8B-\ 8d-\	.	.	.
8D-\J	.	.	.
*	*	*^	*
8G-\ 8B-\ 8e-\L	.	([4gg-/	4.g-\	.
8E-\	.	.	.	.
8G-\ 8B-\ 8e-\J	.	16gg-/LL]	.	.
.	.	16ee-/JJ	.	.
*	*	*v	*v	*
=116	=116	=116	=116
!	!	!LO:TX:t=cresc.	!
8F\L	.	4.dd-\	.
8B-\ 8d-\ 8f\	.	.	.
8F\J	.	.	.
8B-\ 8d-\ 8f\L	.	[4ff\	.
8F\	.	.	.
8B-\ 8d-\ 8f\J	.	16ff\LL]	.
.	.	16dd-\JJ	.
8F\L	.	4.cc\	.
8An\ 8c\ 8e-\	.	.	.
8F\J	.	.	.
8A\ 8c\ 8e-\L	.	[4ee-\	.
8F\	.	.	.
8A\ 8c\ 8e-\J	.	16ee-\LL]	.
.	.	16cc\JJ)	.
*clefG2	*	*	*
=117	=117	=117	=117
8G-/L	.	(4.b-\	f
8B-/ 8d-/ 8g-/	.	.	.
8G-/J	.	.	.
8B-/ 8d-/ 8g-/L	.	2.dd-\)	.
8G-/	.	.	.
8B-/ 8d-/ 8g-/J	.	.	.
8G-/L	.	.	.
8B-/ 8d-/ 8g-/	.	.	.
8G-/J	.	.	.
8B-/ 8d-/ 8g-/L	.	[4b-\ ([4bb-\	.
8G-/	.	.	.
8B-/ 8d-/ 8g-/J	.	16b-\] 16bb-\LL]	.
.	.	16dd-\ 16ddd-\JJ	.
=118	=118	=118	=118
8G-/L	.	4.gg-\ 4.ggg-\	f
8B-/ 8d-/ 8g-/	.	.	.
8G-/J	.	.	.
8B-/ 8d-/ 8g-/L	.	[4bb-\ [4bbb-\	.
8G-/	.	.	.
8B-/ 8d-/ 8g-/J	.	16bb-\] 16bbb-\LL]	.
.	.	16gg-\ 16ggg-\JJ	.
8A-/L	.	4.ff\ 4.fff\	.
8c-/ 8d-/ 8a-/	.	.	.
8A-/J	.	.	.
8c-/ 8d-/ 8a-/L	.	4aa-\ [4aaa-\	.
8A-/	.	.	.
8c-/ 8d-/ 8a-/J	.	16aa-\ 16aaa-\LL]	.
.	.	16ff\ 16fff\JJ)	.
=119	=119	=119	=119
8A#/L	.	4.ff#\ (4.fff#\	.
8c#/ 8f#/ 8a#/	.	.	.
8A#/J	.	.	.
8c#/ 8f#/ 8a#/L	.	[2.cc#\ [2.ccc#\)	.
8A#/	.	.	.
8c#/ 8f#/ 8a#/J	.	.	.
8A#/L	.	.	.
8c#/ 8f#/ 8a#/	.	.	.
8A#/J	.	.	.
8c#/ 8f#/ 8a#/L	.	4.cc#\] 4.ccc#\]	.
8A#/	.	.	.
8c#/ 8f#/ 8a#/J	.	.	.
=120	=120	=120	=120
8Bn/L	.	4.ff#\ (4.fff#\	.
8dn/ 8f#/ 8bn/	.	.	.
8B/J	.	.	.
8d/ 8f#/ 8b/L	.	[2.ddn\ [2.dddn\)	.
8B/	.	.	.
8d/ 8f#/ 8b/J	.	.	.
8B/L	.	.	.
8d/ 8f#/ 8b/	.	.	.
8B/J	.	.	.
8d/ 8f#/ 8b/L	.	4.dd\] 4.ddd\]	.
8B/	.	.	.
8d/ 8f#/ 8b/J	.	.	.
=121	=121	=121	=121
8Bn/L	.	4.gg\ (4.ggg\	.
8dn/ 8g/ 8bn/	.	.	.
8B/J	.	.	.
8d/ 8g/ 8b/L	.	[2.ddn\ [2.dddn\)	.
8B/	.	.	.
8d/ 8g/ 8b/J	.	.	.
8B/L	.	.	.
8d/ 8g/ 8b/	.	.	.
8B/J	.	.	.
8d/ 8g/ 8b/L	.	4.dd\] 4.ddd\]	.
8B/	.	.	.
8d/ 8g/ 8b/J	.	.	.
=122	=122	=122	=122
8c/L	.	4.gg\ (4.ggg\	.
8en/ 8g/ 8cc/	.	.	.
8c/J	.	.	.
8e/ 8g/ 8cc/L	.	[2.een\ [2.eeen\)	.
8c/	.	.	.
8e/ 8g/ 8cc/J	.	.	.
8c/L	.	.	.
8e/ 8g/ 8cc/	.	.	.
8c/J	.	.	.
8e/ 8g/ 8cc/L	.	4.ee\] 4.eee\]	.
8c/	.	.	.
8e/ 8g/ 8cc/J	.	.	.
=123	=123	=123	=123
16d-/LL	.	4r	.
16e-/	.	.	.
16g/	.	.	.
16b-/J	.	.	.
[8dd-/J	.	8r	.
*	*	*8va	*
*^	*	*	*
4.b-/ 4.dd-/]	4.d-\ 4.e-\ 4.g\	.	(16gg/LL	ff
.	.	.	16bb-/	.
.	.	.	16ddd-/	.
.	.	.	16eeen/	.
*	*	*	*^	*
.	.	.	16ggg/	16gg\)	.
.	.	.	16gg/JJ	16r	.
*v	*v	*	*	*	*
*	*	*v	*v	*
16en/LL	.	4r	.
16g/	.	.	.
16b-/	.	.	.
16dd-/J	.	.	.
8een/J	.	8r	.
4.e/ 4.g/ 4.b-/ 4.dd-/	.	16gg/LL	.
.	.	16bb-/	.
.	.	16ddd-/	.
.	.	16eee/	.
*	*	*^	*
.	.	16ggg/	16gg\	.
.	.	16gg/JJ	16r	.
*	*	*v	*v	*
=124	=124	=124	=124
16g/LL	.	4r	.
16b-/	.	.	.
16dd-/	.	.	.
[16een/J	.	.	.
(8ee/J]	.	8r	.
8b-\	.	16gg/LL	.
.	.	16bb-/	.
4ee/)	.	16ddd-/	.
.	.	16eeen/	.
*	*	*^	*
.	.	16ggg/	16gg\	.
.	.	16gg/JJ	16r	.
*	*	*v	*v	*
(16b-/LL	.	4r	.
16dd-/JJ	.	.	.
4een/	.	.	.
.	.	8r	.
4.b-\) 4.dd-\	.	(16gg/LL	.
.	.	16bb-/	.
.	.	16ddd-/	.
.	.	16eeen/	.
*	*	*^	*
.	.	16ggg/	16gg\)	.
.	.	16gg/JJ	16r	.
*	*	*v	*v	*
=125	=125	=125	=125
16dd-/LL	.	8r	.
[16een/JJ	.	.	.
*^	*	*	*
4gg/	4ee\]	.	16bb-/LL	.
.	.	.	16ddd-/	.
.	.	.	16eeen/	.
.	.	.	16ggg/JJ	.
*v	*v	*	*	*
16ee/LL	.	8r	.
(16gg/JJ	.	.	.
4bb-/)	.	16ddd-/LL	.
.	.	16eeen/	.
.	.	16ggg/	.
.	.	16bbb-/JJ	.
(16gg\LL	.	8.r	.
16bb-\	.	.	.
16ddd-\JJ)	.	.	.
16r	.	(16eee\LL	.
8r	.	16ggg\	.
.	.	16bbb-\JJ)	.
(16bb-\LL	.	8.r	.
16ddd-\	.	.	.
16eeen\JJ)	.	.	.
16r	.	(16eee\LL	.
8r	.	16ggg\	.
.	.	16bbb-\JJ)	.
=126	=126	=126	=126
(16ddd-\LL	.	8r	.
16eeen\JJ)	.	.	.
8r	.	(16eeen\LL	.
.	.	16ggg\J	.
8r	.	8bbb-\J)	.
(16bb-\LL	.	8r	.
16ddd-\JJ)	.	.	.
8r	.	(16ddd-\LL	.
.	.	16eee\J	.
8r	.	8ggg\J)	.
(16gg\LL	.	8r	.
16bb-\JJ)	.	.	.
8r	.	(16bb-\LL	.
.	.	16ddd-\J	.
8r	.	8eee\J)	.
*	*	*X8va	*
(16een\LL	.	8r	.
16gg\JJ)	.	.	.
8r	.	(16gg\LL	.
.	.	16bb-\J	.
8r	.	8ddd-\J)	.
=127	=127	=127	=127
(16dd-\LL	.	8r	.
16een\JJ)	.	.	.
8r	.	(16een\LL	.
.	.	16gg\J	.
8r	.	8bb-\J)	.
(16b-\LL	.	8r	.
16dd-\JJ)	.	.	.
8r	.	(16dd-\LL	.
.	.	16ee\J	.
8r	.	8gg\J)	.
(16g/LL	.	8r	.
16b-/JJ)	.	.	.
8r	.	(16b-\LL	.
.	.	16dd-\J	.
8r	.	8ee\J)	.
(16en/LL	.	8r	.
16g/JJ)	.	.	.
8r	.	(16g\LL	.
.	.	16b-\J	.
8r	.	8dd-\J)	.
=128	=128	=128	=128
*ped*	*	*	*
(16d-/LL	.	8r	.
16en/JJ)	.	.	.
8r	.	(16en/LL	.
.	.	16g/J	.
8r	.	8b-/J)	.
(16B-/LL	.	8r	.
16d-/JJ)	.	.	.
8r	.	(16d-/LL	.
.	.	16e/J	.
8r	.	8g/J)	.
*clefF4	*	*	*
(16G\LL	.	8r	.
16B-\JJ)	.	.	.
8r	.	(16B-/LL	.
.	.	16d-/J	.
8r	.	8e/J)	.
(16En\LL	.	8r	.
16G\JJ)	.	.	.
*	*	*clefF4	*clefF4
8r	.	(16G\LL	.
.	.	16B-\J	.
8r	.	8d-\J)	.
=129	=129	=129	=129
(16D-\LL	.	8r	.
16En\JJ)	.	.	.
8r	.	(16En\LL	.
.	.	16G\J	.
8r	.	8B-\J)	.
16BB-/LL	.	8r	.
16D-/JJ	.	.	.
8r	.	(16D-\LL	.
.	.	16E\J	.
8r	.	8G\J)	.
(16GG/LL	.	8r	.
16BB-/JJ)	.	.	.
8r	.	(16BB-/LL	.
.	.	16D-/J	.
8r	.	8E/J)	.
(16EEn/LL	.	8r	.
16GG/JJ)	.	.	.
8r	.	(16GG/LL	.
.	.	16BB-/J	.
8r	.	8D-/J)	.
=130	=130	=130	=130
4DD-/	.	16GG/ 16BB-/LL	ff
.	.	16En/	.
.	.	16GG/ 16BB-/	.
.	.	16E/	.
8r	.	16GG/ 16BB-/	.
.	.	16E/JJ	.
*clefG2	*	*	*
8dd-\L	.	16GG/ 16BB-/LL	.
.	.	16E/	.
8dd-\	.	16GG/ 16BB-/	.
.	.	16E/	.
8dd-\J	.	16GG/ 16BB-/	.
.	.	16E/JJ	.
4dd-\	.	16GG/ 16BB-/LL	.
.	.	16E/	.
.	.	16GG/ 16BB-/	.
.	.	16E/	.
8r	.	16GG/ 16BB-/	.
.	.	16E/JJ	.
*clefF4	*	*	*
8DD-/L	.	16GG/ 16BB-/LL	.
.	.	16E/	.
8DD-/	.	16GG/ 16BB-/	.
.	.	16E/	.
8DD-/J	.	16GG/ 16BB-/	.
.	.	16E/JJ	.
=131	=131	=131	=131
4DD-/	.	16GG/ 16BB-/LL	.
.	.	16En/	.
.	.	16GG/ 16BB-/	.
.	.	16E/	.
8r	.	16GG/ 16BB-/	.
.	.	16E/JJ	.
*clefG2	*	*	*
8dd-\L	.	16GG/ 16BB-/LL	.
.	.	16E/	.
8dd-\	.	16GG/ 16BB-/	.
.	.	16E/	.
8dd-\J	.	16GG/ 16BB-/	.
.	.	16E/JJ	.
4dd-\	.	16GG/ 16BB-/LL	.
.	.	16E/	.
.	.	16GG/ 16BB-/	.
.	.	16E/	.
8r	.	16GG/ 16BB-/	.
.	.	16E/JJ	.
*clefF4	*	*	*
8DD-/L	.	16GG/ 16BB-/LL	.
.	.	16E/	.
8DD-/	.	16GG/ 16BB-/	.
.	.	16E/	.
8DD-/J	.	16GG/ 16BB-/	.
.	.	16E/JJ	.
=132	=132	=132	=132
*Xped	*	*	*
4CC/	.	16GG/ 16BB-/LL	.
.	.	16En/	.
.	.	16GG/ 16BB-/	.
.	.	16E/	.
8r	.	16GG/ 16BB-/	.
.	.	16E/JJ	.
*clefG2	*	*	*
8dd-\L	.	16GG/ 16BB-/LL	.
.	.	16E/	.
8dd-\	.	16GG/ 16BB-/	.
.	.	16E/	.
8dd-\J	.	16GG/ 16BB-/	.
.	.	16E/JJ	.
4cc\	.	16GG/ 16BB-/LL	.
.	.	16E/	.
.	.	16GG/ 16BB-/	.
.	.	16E/	.
8r	.	16GG/ 16BB-/	.
.	.	16E/JJ	.
*clefF4	*	*	*
8DD-/L	.	16GG/ 16BB-/LL	.
.	.	16E/	.
8DD-/	.	16GG/ 16BB-/	.
.	.	16E/	.
8DD-/J	.	16GG/ 16BB-/	.
.	.	16E/JJ	.
=133	=133	=133	=133
4CC/	.	16GG/ 16BB-/LL	.
.	.	16En/	.
.	.	16GG/ 16BB-/	.
.	.	16E/	.
8r	.	16GG/ 16BB-/	.
.	.	16E/JJ	.
*clefG2	*	*	*
8dd-\L	.	16GG/ 16BB-/LL	.
.	.	16E/	.
8dd-\	.	16GG/ 16BB-/	.
.	.	16E/	.
8dd-\J	.	16GG/ 16BB-/	.
.	.	16E/JJ	.
4cc\	.	16GG/ 16BB-/LL	.
.	.	16E/	.
.	.	16GG/ 16BB-/	.
.	.	16E/	.
8r	.	16GG/ 16BB-/	.
.	.	16E/JJ	.
*clefF4	*	*	*
8DD-/L	.	16GG/ 16BB-/LL	.
.	.	16E/	.
8DD-/	.	16GG/ 16BB-/	.
.	.	16E/	.
8DD-/J	.	16GG/ 16BB-/	.
.	.	16E/JJ	.
=134	=134	=134	=134
8CC/L	.	4GG/ 4BB-/ 4En/	p
8CC/	.	.	.
8CC/J	.	8r	.
!	!	!LO:TX:t=dim.	!
8CC/L	.	4r	.
8CC/	.	.	.
8CC/J	.	8r	.
8CC/L	.	2.r	.
8CC/	.	.	.
8CC/J	.	.	.
8CC/L	.	.	.
8CC/	.	.	.
8CC/J	.	.	.
=135	=135	=135	=135
8CC/L	.	2.r	.
8CC/	.	.	.
8CC/J	.	.	.
8CC/L	.	.	.
8CC/	.	.	.
8CC/J	.	.	.
8CC/L	.	4r	.
8CC/	.	.	.
8CC/J	.	8r	.
!	!	!LO:S:a	!
8CC/L	.	[4C\ ([4c\	pp
8CC/	.	.	.
8CC/J	.	16C\] 16c\LL]	.
.	.	16AA-\ 16A-\JJ	.
=136	=136	=136	=136
8CC/L	.	[2.FF/ [2.F/	.
8CC/	.	.	.
8CC/J	.	.	.
8CC/L	.	.	.
8CC/	.	.	.
8CC/J	.	.	.
8CC/L	.	4.FF/] 4.F/]	.
8CC/	.	.	.
8CC/J	.	.	.
8CC/L	.	[4AA-\ [4A-\	.
8CC/	.	.	.
8CC/J	.	16AA-\] 16A-\LL]	.
.	.	16C\ 16c\JJ	.
=137	=137	=137	=137
8CC/L	.	4.F\ 4.f\	.
8CC/	.	.	.
8CC/J	.	.	.
*	*	*clefG2	*clefG2
8CC/L	.	[4A-/ [4a-/	.
8CC/	.	.	.
8CC/J	.	16A-/] 16a-/LL]	.
.	.	16c/ 16cc/JJ	.
8CC/L	.	4.f\ 4.ff\	.
8CC/	.	.	.
8CC/J	.	.	.
8CC/L	.	4.F/ 4.f/)	.
8CC/	.	.	.
8CC/J	.	.	.
=138	=138	=138	=138
*	*	*^	*
8CC/L	.	([4.cc/	2.en\ 2.g\	.
8CC/	.	.	.	.
8CC/J	.	.	.	.
8CC/L	.	4cc/]	.	.
8CC/	.	.	.	.
8CC/J	.	8ddn/	.	.
8CC/L	.	[4.dd/	2.f\ 2.bn\	.
8CC/	.	.	.	.
8CC/J	.	.	.	.
8CC/L	.	8.dd/L]	.	.
8CC/	.	.	.	.
.	.	16cc/L	.	.
8CC/J	.	16een/	.	.
.	.	16dd/JJ)	.	.
*	*	*v	*v	*
=139	=139	=139	=139
8CC/L	.	4en/ 4g/ 4cc/	.
8CC/	.	.	.
8CC/J	.	8r	.
8CC/L	.	4r	.
8CC/	.	.	.
8CC/J	.	8r	.
(8CC/L	.	4r	.
8DD-/)	.	.	.
8DD-/J	.	8r	.
*	*	*clefF4	*clefF4
8DD-/L	.	[4D-\ ([4d-\	pp
8DD-/	.	.	.
8DD-/J	.	16D-\] 16d-\LL]	.
.	.	16BB-\ 16B-\JJ	.
=140	=140	=140	=140
8DD-/L	.	[2.GG-\ [2.G-\	.
8DD-/	.	.	.
8DD-/J	.	.	.
8DD-/L	.	.	.
8DD-/	.	.	.
8DD-/J	.	.	.
8DD-/L	.	4.GG-\] 4.G-\]	.
8DD-/	.	.	.
8DD-/J	.	.	.
8DD-/L	.	[4BB-\ [4B-\	.
8DD-/	.	.	.
8DD-/J	.	16BB-\] 16B-\LL]	.
.	.	16D-\ 16d-\JJ	.
*	*	*clefG2	*clefG2
=141	=141	=141	=141
8DD-/L	.	4.G-/ 4.g-/	.
8DD-/	.	.	.
8DD-/J	.	.	.
8DD-/L	.	[4B-/ [4b-/	.
8DD-/	.	.	.
8DD-/J	.	16B-/] 16b-/LL]	.
.	.	16d-/ 16dd-/JJ	.
8DD-/L	.	4.g-\ 4.gg-\	.
8DD-/	.	.	.
8DD-/J	.	.	.
8DD-/L	.	4.G-/ 4.g-/)	.
8DD-/	.	.	.
8DD-/J	.	.	.
=142	=142	=142	=142
*	*	*^	*
8DD-/L	.	([4.dd-/	2.f\ 2.a-\	.
8DD-/	.	.	.	.
8DD-/J	.	.	.	.
8DD-/L	.	4dd-/]	.	.
8DD-/	.	.	.	.
8DD-/J	.	8ee-/	.	.
8DD-/L	.	[4.ee-/	2.g-\ 2.cc\	.
8DD-/	.	.	.	.
8DD-/J	.	.	.	.
8DD-/L	.	8.ee-/L]	.	.
8DD-/	.	.	.	.
.	.	16dd-/L	.	.
8DD-/J	.	16ff/	.	.
.	.	16ee-/JJ)	.	.
*	*	*v	*v	*
=143	=143	=143	=143
*	*	*^	*
8DD-/L	.	4dd-/	4f\ 4a-\	.
8BBB-/ 8FF/	.	.	.	.
*	*	*v	*v	*
8BBBn/ 8FF/J	.	8r	.
8BBB/ 8FF/L	.	4r	.
8BBB/ 8FF/	.	.	.
8BBB/ 8FF/J	.	8r	.
8BBB/ 8FF/L	.	2.r	.
8BBB/ 8FF/	.	.	.
8BBB/ 8FF/J	.	.	.
8BBB/ 8FF/L	.	.	.
8BBB/ 8FF/	.	.	.
8BBB/ 8FF/J	.	.	.
=144	=144	=144	=144
*^	*	*	*
2.EE/	8EEn\L	.	([4.cc\	.
.	8CC\	.	.	.
.	8CC\J	.	.	.
.	8CC\L	.	4cc\]	.
.	8CC\	.	.	.
.	8CC\J	.	[8ddn\	.
2.FF/	8FF\L	.	4.dd\_	.
.	8CC\	.	.	.
.	8CC\J	.	.	.
.	8CC\L	.	8.dd\L]	.
.	8CC\	.	.	.
.	.	.	16cc\L	.
.	8CC\J	.	16een\	.
.	.	.	16dd\JJ)	.
*v	*v	*	*	*
=145	=145	=145	=145
8EEn/L	.	4cc\	.
8CC/	.	.	.
8CC/J	.	8r	.
*	*	*clefF4	*clefF4
8CC/L	.	8D-\L	.
8CC/	.	8D-\	.
8CC/J	.	8D-\J	.
8CC/L	.	4C/	.
8CC/	.	.	.
8CC/J	.	8r	.
8CC/L	.	4r	.
8CC/	.	.	.
8CC/J	.	8r	.
*	*	*clefG2	*clefG2
=146	=146	=146	=146
*^	*	*	*
2.GG/	8GG\L	.	([4.een\	.
.	8CC\	.	.	.
.	8CC\J	.	.	.
.	8CC\L	.	4ee\]	.
.	8CC\	.	.	.
.	8CC\J	.	8ff\	.
.	.	.	(ee8q/	.
2.AA-/	8AA-\L	.	[4.ff\)	.
.	8CC\	.	.	.
.	8CC\J	.	.	.
.	8CC\L	.	8.ff\L]	.
.	8CC\	.	.	.
.	.	.	16ee\L	.
.	8CC\J	.	16gg\	.
.	.	.	16ff\JJ)	.
*v	*v	*	*	*
=147	=147	=147	=147
8GG/L	.	4een\	.
8CC/	.	.	.
8CC/J	.	8r	.
*	*	*clefF4	*clefF4
8CC/L	.	8D-\L	.
8CC/	.	8D-\	.
8CC/J	.	8D-\J	.
8CC/L	.	4C/	.
8CC/	.	.	.
8CC/J	.	8r	.
*	*	*clefG2	*clefG2
8CC/L	.	8een\ 8gg\L	.
8CC/	.	8ee\ 8gg\	.
8CC/J	.	8ee\ 8gg\J	.
=148	=148	=148	=148
8CC/L	.	4gg\ 4bb-\	.
8CC/	.	.	.
8CC/J	.	8r	.
*	*	*clefF4	*clefF4
8CC/L	.	8D-\L	.
8CC/	.	8D-\	.
8CC/J	.	8D-\J	.
8CC/L	.	4C/	.
8CC/	.	.	.
8CC/J	.	8r	.
*	*	*clefG2	*clefG2
8CC/L	.	8gg\ 8bb-\L	.
8CC/	.	8gg\ 8bb-\	.
8CC/J	.	8gg\ 8bb-\J	.
=149	=149	=149	=149
*	*	*8va	*
!	!	!LO:TX:t=cresc.	!
8CC/L	.	16eeen\LL	.
.	.	16bb-\	.
8CC/	.	16ggg\	.
.	.	16eee\	.
8CC/J	.	16bbb-\	.
.	.	16ggg\JJ	.
8CC/L	.	16eee\LL	.
.	.	16ggg\	.
8CC/	.	16bb-\	.
.	.	16eee\	.
8CC/J	.	16gg\	.
.	.	16bb-\JJ	.
*	*	*X8va	*
8CC/L	.	16ee\LL	.
.	.	16gg\	.
8CC/	.	16b-\	.
.	.	16ee\	.
8CC/J	.	16g\	.
.	.	16b-\JJ	.
8CC/L	.	16en/LL	.
.	.	16g/	.
8CC/	.	16B-/	.
.	.	16e/	.
8CC/J	.	16G/	.
.	.	16B-/JJ	.
*	*	*clefF4	*clefF4
=150	=150	=150	=150
8CC/L	.	16En\LL	.
.	.	16G\	.
8CC/	.	16BB-\	.
.	.	16E\	.
8CC/J	.	16GG\	.
.	.	16BB-\JJ	.
8CC/L	.	16D-\LL	.
.	.	16BB-\	.
8CC/	.	16E\	.
.	.	16D-\	.
8CC/J	.	16G\	.
.	.	16E\JJ	.
8GGG/ 8GG/L	.	8B-\	f
8CC/	.	8r	.
8CC/J	.	8r	.
8FFF/ 8FF/L	.	8D-\ 8A-\ 8d-\	f
8CC/	.	8r	.
8CC/J	.	8r	.
=151	=151	=151	=151
[2.CC/ [2.EEn/	.	[2.En\ [2.G\ [2.c\	p
4.CC/] 4.EE/]	.	4.E;\] 4.G;\] 4.c;\]	.
[4CC/	.	[4c\	pp
16CC/LL]	.	16c\LL]	.
16AAAn/JJ	.	16An\JJ	.
*	*	*clefG2	*clefG2
=152	=152	=152	=152
8FFF/	.	8Fj/	ff
8r	.	4Fj/ 4Anj/ 4c/ 4f/	.
[8FFF/ [8AAAn/ [8CC/ [8FF/	.	.	.
8FFF/] 8AAA/] 8CC/] 8FF/]	.	4A/ 4c/ 4f/ 4an/	.
4FFF/ 4AAA/ 4CC/ 4FF/	.	.	.
.	.	4c/ 4f/ 4a/ 4cc/	.
4FFF/ 4AAA/ 4CC/ 4FF/	.	.	.
.	.	4f\ 4a\ 4cc\ 4ff\	.
[8FFF/ [8AAA/ [8CC/ [8FF/	.	.	.
8FFF/] 8AAA/] 8CC/] 8FF/]	.	4a\ 4cc\ 4ff\ 4aan\	.
4FFF/ 4AAA/ 4CC/ 4FF/	.	.	.
.	.	8cc\ 8ff\ 8aa\ 8ccc\	.
=153	=153	=153	=153
[2.FFF/ [2.AAAn/ [2.CC/ [2.FF/	.	[2.ff\ [2.aan\ [2.ccc\ [2.fff\	sf
4.FFF/] 4.AAA/] 4.CC/] 4.FF/]	.	4.ff\] 4.aa\] 4.ccc\] 4.fff\]	.
!LO:S:a	!	!LO:S:a	!
([4AAA/	.	([4An/	p
16AAA/LL]	.	16A/LL]	.
16CC/JJ	.	16c/JJ	.
=154	=154	=154	=154
4.FF/	.	4.f/	.
[4AAn/	.	[4an/	.
16AA/LL]	.	16a/LL]	.
16C/JJ	.	16cc/JJ	.
4.F\	.	4.ff\	.
4.FF/)	.	4.f/)	.
=155	=155	=155	=155
4r	.	8Enj/ 8Gj/ 8c/	ff
.	.	4Gj/ 4cj/ 4en/	.
[8EEn/ [8GG/ [8C/	.	.	.
8EE/] 8GG/] 8C/]	.	4c/ 4e/ 4g/	.
4EE/ 4GG/ 4C/	.	.	.
.	.	4e/ 4g/ 4cc/	.
4EE/ 4GG/ 4C/	.	.	.
.	.	4g\ 4cc\ 4een\	.
[8EE/ [8GG/ [8C/	.	.	.
8EE/] 8GG/] 8C/]	.	4cc\ 4ee\ 4gg\	.
4EE/ 4GG/ 4C/	.	.	.
.	.	8ee\ 8gg\ 8ccc\	.
*clefG2	*	*	*
=156	=156	=156	=156
*	*	*^	*
(2.en/ 2.g/	.	2.ryy	[4.cc\	p
.	.	.	4cc\]	.
.	.	.	8ddn\	.
2.f/) 2.a-/	.	[4.dd/	2.bn\	.
.	.	8.dd/L]	.	.
.	.	16cc/L	.	.
.	.	16een/	.	.
.	.	16dd/JJ	.	.
*clefF4	*	*	*	*
*	*	*v	*v	*
=157	=157	=157	=157
4r	.	8Enj/ 8Gj/ 8c/	f
.	.	4Gj/ 4cj/ 4en/	.
[8EEn/ [8GG/ [8C/	.	.	.
8EE/] 8GG/] 8C/]	.	4c/ 4e/ 4g/	.
4EE/ 4GG/ 4C/	.	.	.
.	.	4e/ 4g/ 4cc/	.
4EE/ 4GG/ 4C/	.	.	.
.	.	4g\ 4cc\ 4een\	.
[8EE/ [8GG/ [8C/	.	.	.
8EE/] 8GG/] 8C/]	.	4cc\ 4ee\ 4gg\	.
4EE/ 4GG/ 4C/	.	.	.
.	.	8ee\ 8gg\ 8ccc\	.
*clefG2	*	*	*
=158	=158	=158	=158
(2.en/ 2.g/	.	([4.cc\	p
.	.	4cc\]	.
.	.	8ddn\	.
2.f/) 2.a-/	.	[4.dd\	.
.	.	4dd\]	.
.	.	16cc\LL	.
.	.	16dd\JJ)	.
*clefF4	*	*	*
=159	=159	=159	=159
4r	.	8G/ 8B-/ 8en/	ff
.	.	4B-/ 4e/ 4g/	.
[8GG/ [8BB-/ 8En/	.	.	.
8GG/] 8BB-/] 8E/	.	4e/ 4g/ 4b-/	.
4GG/ 4BB-/ 4E/	.	.	.
.	.	4g\ 4b-\ 4een\	.
4GG/ 4BB-/ 4E/	.	.	.
.	.	4b-\ 4ee\ 4gg\	.
[8GG/ [8BB-/ [8E/	.	.	.
8GG/] 8BB-/] 8E/]	.	4ee\ 4gg\ 4bb-\	.
4GG/ 4BB-/ 4E/	.	.	.
.	.	8gg\ 8bb-\ 8eeen\	.
*clefG2	*	*	*
=160	=160	=160	=160
(2.g/ 2.b-/	.	([4.een\	p
.	.	4ee\]	.
.	.	8ff\	.
2.a-/) 2.cc/	.	[4.ff\	.
.	.	4ff\]	.
.	.	16ee\LL	.
.	.	16ff\JJ)	.
*clefF4	*	*	*
=161	=161	=161	=161
4r	.	8en/ 8g/	ff
.	.	4dd-\ 4een\	.
[8BB-\ [8D-\ [8En\ [8G\	.	.	.
8BB-\] 8D-\] 8E\] 8G\]	.	4ee\ 4gg\	.
*clefG2	*	*	*
4B-/ 4d-/ 4en/ 4g/	.	.	.
.	.	4gg\ 4bb-\	.
4B-/ 4d-/ 4e/ 4g/	.	.	.
.	.	4bb-\ 4ddd-\	.
[8B-/ [8d-/ [8e/ [8g/	.	.	.
8B-/] 8d-/] 8e/] 8g/]	.	4ddd-\ 4eeen\	.
4B-/ 4d-/ 4e/ 4g/	.	.	.
.	.	8eee\ 8ggg\	.
=162	=162	=162	=162
*	*	*^	*
2.b-\ (2.dd-\	.	([4.gg/	2.een\	f
.	.	4gg/]	.	.
.	.	8aa-/	.	.
2.bn\ 2.ddn\)	.	[4.aa-/	2.ff\	sf
.	.	8.aa-/L]	.	.
.	.	16gg/L	.	.
.	.	16bb-/	.	.
.	.	16aa-/JJ)	.	.
=163	=163	=163	=163	=163
8c\L	.	4.gg/	4.een\	p
8cc\	.	.	.	.
8cc\J	.	.	.	.
*	*	*v	*v	*
8cc\L	.	4r	.
8cc\	.	.	.
8cc\J	.	8r	.
8cc\L	.	2.r	.
8cc\	.	.	.
8cc\J	.	.	.
8cc\L	.	.	.
8cc\	.	.	.
8cc\J	.	.	.
=164	=164	=164	=164
8r	.	4.ff\ 4.aa-\	.
8cc\L	.	.	.
8cc\J	.	.	.
8f\ 8a-\L	.	4r	.
8cc\	.	.	.
8cc\J	.	8r	.
8cc\L	.	2.r	.
8cc\	.	.	.
8cc\J	.	.	.
8cc\L	.	.	.
8cc\	.	.	.
8cc\J	.	.	.
=165	=165	=165	=165
8r	.	(1.ff 1.aa- 1.ddd-	sfp
8cc\L	.	.	.
8cc\J	.	.	.
8f\ 8a-\L	.	.	.
8cc\	.	.	.
8cc\J	.	.	.
8f\ 8a-\L	.	.	.
8cc\	.	.	.
8cc\J	.	.	.
8f\ 8a-\L	.	.	.
8cc\	.	.	.
8cc\J	.	.	.
=166	=166	=166	=166
8en/ 8g/L	.	4een\ 4gg\ 4ccc\)	.
8c/	.	.	.
8c/J	.	8r	.
8c/L	.	4r	.
8c/	.	.	.
8c/J	.	8r	.
8c/L	.	4r	.
8c/	.	.	.
8c/J	.	8r	.
8c/L	.	[4ee\ [4gg\	.
8c/	.	.	.
8c/J	.	16ee\] 16gg\LL]	.
.	.	16ee\ 16gg\JJ	.
*clefF4	*	*	*
=167	=167	=167	=167
8c\L	.	4ff\ (4aa-\	.
8c\	.	.	.
8c\J	.	8een\ 8gg\)	.
8c\L	.	8r	.
8c\	.	8r	.
8c\J	.	8en/ 8g/	.
8c\L	.	8r	.
8c\	.	8r	.
*	*	*clefF4	*clefF4
8c\J	.	8En\ 8G\	.
8G\ 8B-\L	.	8r	.
8c\	.	8.r	.
8c\J	.	.	.
*	*	*clefG2	*clefG2
.	.	16een\ 16gg\	.
=168	=168	=168	=168
8c\L	.	4gg\ (4bb-\	.
8c\	.	.	.
8c\J	.	8ff\ 8aa-\)	.
8c\L	.	8r	.
8c\	.	8r	.
8c\J	.	8f/ 8a-/	.
8c\L	.	8r	.
8c\	.	8r	.
*	*	*clefF4	*clefF4
8c\J	.	8F\ 8A-\	.
8F\ 8A-\L	.	8r	.
8c\	.	8.r	.
8c\J	.	.	.
*	*	*clefG2	*clefG2
.	.	16ff\ 16aa-\	.
=169	=169	=169	=169
8r	.	1.ff 1.aa- (1.ddd-	sfp
8c\L	.	.	.
8c\J	.	.	.
8F\ 8A-\L	.	.	.
8c\	.	.	.
8c\J	.	.	.
8F\ 8A-\L	.	.	.
8c\	.	.	.
8c\J	.	.	.
8F\ 8A-\L	.	.	.
8c\	.	.	.
8c\J	.	.	.
=170	=170	=170	=170
8r	.	4een\ 4gg\ 4ccc\)	.
8c\L	.	.	.
8c\J	.	8r	.
!	!	!LO:TX:t=dim.	!
8En\ 8G\L	.	4r	.
8c\	.	.	.
8c\J	.	8r	.
8r	.	2.e-X/ 2.f#/ 2.cc/	.
8c\L	.	.	.
8c\J	.	.	.
8E-\ 8F#\L	.	.	.
8c\	.	.	.
8c\J	.	.	.
=171	=171	=171	=171
8r	.	4dn/ 4fn/ 4bn/	.
8c\L	.	.	.
8c\J	.	8r	.
8Dn\ 8F\L	.	4r	.
8c\	.	.	.
8c\J	.	8r	.
8r	.	4d-/ 4f/ 4b-/	.
8c\L	.	.	.
8c\J	.	8r	.
8D-\ 8F\L	.	4r	.
8c\	.	.	.
8c\J	.	8r	.
=172	=172	=172	=172
8r	.	4.c/ 4.f/ 4.a-/	pp
8C/L	.	.	.
8C/J	.	.	.
8C/L	.	4r	.
8C/	.	.	.
8C/J	.	8r	.
8C/L	.	2.r	.
8C/	.	.	.
8C/J	.	.	.
8C/L	.	.	.
8C/	.	.	.
8C/J	.	.	.
*	*	*clefF4	*clefF4
=173	=173	=173	=173
8r	.	4.BB-/ 4.C/ 4.En/ 4.G/	.
8CC/L	.	.	.
8CC/J	.	.	.
8CC/L	.	4r	.
8CC/	.	.	.
8CC/J	.	8r	.
8CC/L	.	2.r	.
8CC/	.	.	.
8CC/J	.	.	.
8CC/L	.	.	.
8CC/	.	.	.
8CC/J	.	.	.
=174	=174	=174	=174
!LO:TX:a:t=dolce	!	!	!
8FFF/L	.	2.r	.
8AAAn/ 8CC/ 8FF/	.	.	.
8FFF/J	.	.	.
8AAA/ 8CC/ 8FF/L	.	.	.
8FFF/	.	.	.
8AAA/ 8CC/ 8FF/J	.	.	.
8FFF/L	.	4r	.
8AAA/ 8CC/ 8FF/	.	.	.
!	!	!LO:TX:a:t=dolce	!
8FFF/J	.	8r	.
8AAA/ 8CC/ 8FF/L	.	[4AAn\ ([4An\	.
8FFF/	.	.	.
8AAA/ 8CC/ 8FF/J	.	16AA\] 16A\LL]	.
.	.	16C\ 16c\JJ	.
=175	=175	=175	=175
8FFF/L	.	4.F\ 4.f\	.
8AAAn/ 8CC/ 8FF/	.	.	.
8FFF/J	.	.	.
8AAA/ 8CC/ 8FF/L	.	[4An\ [4an\	.
8FFF/	.	.	.
8AAA/ 8CC/ 8FF/J	.	16A\] 16a\LL]	.
.	.	16F\ 16f\JJ	.
8GGG/L	.	4.En\ 4.en\	.
8BBB-/ 8EEn/ 8GG/	.	.	.
8GGG/J	.	.	.
8BBB-/ 8EE/ 8GG/L	.	[4G\ [4g\	.
8GGG/	.	.	.
8BBB-/ 8EE/ 8GG/J	.	16G\] 16g\LL]	.
.	.	16E\ 16e\JJ	.
=176	=176	=176	=176
8AAAn/L	.	4.F\ 4.f\	.
8CC/ 8FF/ 8AAn/	.	.	.
8AAA/J	.	.	.
8CC/ 8FF/ 8AA/L	.	2.C\ 2.c\)	.
8AAA/	.	.	.
8CC/ 8FF/ 8AA/J	.	.	.
8AAA/L	.	.	.
8CC/ 8FF/ 8AA/	.	.	.
8AAA/J	.	.	.
8FF/L	.	[4Dn\ ([4dn\	.
8BBB-/	.	.	.
8FF/J	.	16D\] 16d\LL]	.
.	.	16BB-\ 16B-\JJ	.
=177	=177	=177	=177
8CC/L	.	4.AAn\ 4.An\	.
8FF/	.	.	.
8CC/J	.	.	.
8FF/L	.	4C\ [4c\	.
8CC/	.	.	.
8FF/J	.	16C\ 16c\LL]	.
.	.	16AA\ 16A\JJ	.
8CC/L	.	4.GG\ 4.G\	.
8EEn/	.	.	.
8CC/J	.	.	.
8EE/L	.	[4C\ [4c\	.
8CC/	.	.	.
8EE/J	.	16C\] 16c\LL]	.
.	.	16BB-\ 16B-\JJ)	.
*	*	*clefG2	*clefG2
=178	=178	=178	=178
8FF\L	.	(4.An/	.
8AAn\ 8C\ 8F\	.	.	.
8FF\J	.	.	.
!	!	!LO:TX:t=cresc.	!
8AA\ 8C\ 8F\L	.	[4.c/)	.
8FF\	.	.	.
8AA\ 8C\ 8F\J	.	.	.
8FF\L	.	4.c/]	.
8AA\ 8C\ 8F\	.	.	.
8FF\J	.	.	.
!	!	!LO:S:a	!
8AA\ 8C\ 8F\L	.	([4A/ [4an/	.
8FF\	.	.	.
8AA\ 8C\ 8F\J	.	16A/] 16a/LL]	.
.	.	16c/ 16cc/JJ	.
=179	=179	=179	=179
8FF\L	.	4.f\ 4.ff\	.
8AAn\ 8C\ 8F\	.	.	.
8FF\J	.	.	.
8AA\ 8C\ 8F\L	.	[4an\ [4aan\	.
8FF\	.	.	.
8AA\ 8C\ 8F\J	.	16a\] 16aa\LL]	.
.	.	16f\ 16ff\JJ	.
8GG\L	.	4.en\ 4.een\	.
8BB-\ 8C\ 8G\	.	.	.
8GG\J	.	.	.
8BB-\ 8C\ 8G\L	.	4g\ [4gg\	.
8GG\	.	.	.
8BB-\ 8C\ 8G\J	.	16g\ 16gg\LL]	.
.	.	16e\ 16ee\JJ)	.
=180	=180	=180	=180
1.AAn 1.C 1.F 1.An	.	4.f/ (4.ff/	p
.	.	[2.c/ [2.cc/)	.
.	.	4.c/] 4.cc/]	.
=181	=181	=181	=181
*^	*	*	*
(4.F/	1.BB- 1.D-	.	4.d-/ (4.dd-/	f
[2.G-/)	.	.	[2.B-/ [2.b-/)	sf
4.G-/]	.	.	4.B-/] 4.b-/]	.
*v	*v	*	*	*
=182	=182	=182	=182
1.C 1.F 1.A-	.	[2.a-/	p
.	.	4.a-/]	.
.	.	(4g/	.
.	.	8f/)	.
=183	=183	=183	=183
1.C 1.En 1.B-	.	1.g	.
=184	=184	=184	=184
.	.	(dd-8q/	.
1.r	.	1.cc)	.
.	.	16bnqLL/	.
.	.	16ccqJJ/	.
=185	=185	=185	=185
.	.	(ddd-8q/	.
1.r	.	1.ccc)	.
.	.	16bbnqLL/	.
.	.	16cccqJJ/	.
=186	=186	=186	=186
1.r	.	8ddd-\L	pp
.	.	8ccc\	.
.	.	8bb-X\J	.
.	.	8aa-\L	.
.	.	8gg\	.
.	.	8gg-\J	.
.	.	8ff\L	.
.	.	8een\	.
.	.	8ee-\J	.
.	.	8dd-\L	.
.	.	8cc\	.
.	.	8b-\J	.
=187	=187	=187	=187
1.r	.	8a-/L	.
.	.	8gn/	.
.	.	8g-/J	.
.	.	8f/L	.
.	.	8en/	.
.	.	8e-/J	.
.	.	8d-/L	.
.	.	8c/	.
.	.	8B-/J	.
*	*	*clefF4	*clefF4
.	.	8A-\L	.
.	.	8Gn\	.
.	.	8G-\J	.
=188	=188	=188	=188
2.r	.	8F\L	.
.	.	8En\	.
.	.	8E-\J	.
.	.	8D-/L	.
.	.	8C/	.
.	.	8BB-/J	.
4r	.	8AA-/L	.
.	.	8GGn/	.
8r	.	8GG-/J	.
8FF/L	.	4r	.
8EEn/	.	.	.
8EE-/J	.	8r	.
=189	=189	=189	=189
8DD-/L	.	1.r	.
8CC/	.	.	.
8BBB-/J	.	.	.
8AAA-/L	.	.	.
8GGGn/	.	.	.
8AAA-/J	.	.	.
8BBB-/L	.	.	.
8CC/	.	.	.
8BBBn/J	.	.	.
8CC/L	.	.	.
8BBB/	.	.	.
8CC/J	.	.	.
=190	=190	=190	=190
16FFF/LL	.	16F\LL	f
16CC/	.	16C\	.
16FF/	.	16AA-\	.
16CC/	.	16C\	.
16FFF/	.	16F\	.
16CC/JJ	.	16C\JJ	.
16FFF/LL	.	16A-\LL	.
16CC/	.	16C\	.
16FFF/	.	16G\	.
16CC/	.	16C\	.
16FFF/	.	16F\	.
16CC/JJ	.	16C\JJ	.
16FFF/LL	.	16F\LL	.
16CC/	.	16C\	.
16FF/	.	16AA-\	.
16CC/	.	16C\	.
16FFF/	.	16F\	.
16CC/JJ	.	16C\JJ	.
16FFF/LL	.	16A-\LL	.
16CC/	.	16C\	.
16FFF/	.	16G\	.
16CC/	.	16C\	.
16FFF/	.	16F\	.
16CC/JJ	.	16C\JJ	.
=191	=191	=191	=191
16FFF/LL	.	16d-\LL	.
16DD-/	.	16A-\	.
16FF/	.	16F\	.
16DD-/	.	16A-\	.
16FFF/	.	16d-\	.
16DD-/JJ	.	16A-\JJ	.
16FFF/LL	.	16f\LL	.
16DD-/	.	16A-\	.
16FFF/	.	16e-\	.
16DD-/	.	16A-\	.
16FFF/	.	16d-\	.
16DD-/JJ	.	16A-\JJ	.
16FFF/LL	.	16d-\LL	.
16DD-/	.	16A-\	.
16FF/	.	16F\	.
16DD-/	.	16A-\	.
16FFF/	.	16d-\	.
16DD-/JJ	.	16A-\JJ	.
16FFF/LL	.	16f\LL	.
16DD-/	.	16A-\	.
16FFF/	.	16e-\	.
16DD-'/	.	16A-\	.
16FFF/	.	16d-\	.
16DD-/JJ	.	16A-\JJ	.
*	*	*clefG2	*clefG2
=192	=192	=192	=192
[2.GGG-/ [2.GG-/	.	16b-\LL	ff
.	.	16dd-\	.
.	.	16b-\	.
.	.	16dd-\	.
.	.	16b-\	.
.	.	16dd-\JJ	.
.	.	16b-\LL	.
.	.	16dd-\	.
.	.	16b-\	.
.	.	16dd-\	.
.	.	16b-\	.
.	.	16dd-\JJ	.
4.GGG-/] 4.GG-/]	.	16b-\LL	.
.	.	16dd-\	.
.	.	16b-\	.
.	.	16dd-\	.
.	.	16b-\	.
.	.	16dd-\JJ	.
8GGGn'/ 8GGn'/L	.	16b-\LL	.
.	.	16dd-\	.
8BBB-/	.	16g\	.
.	.	16b-\	.
8DD-'/J	.	16en\	.
.	.	16g\JJ	.
=193	=193	=193	=193
8EEn'\L	<	16d-/LL	.
.	(	16en/	.
8GG'\	(	16B-j/	.
.	(	16d-j/	.
8BB-'\J	(	16Gj/	.
.	(	16B-j/JJ	.
8D-'\L	(	16Fj/LL	.
.	(	16Gj/	.
8D-'\	(	16B-j/	.
.	(	16Gj/	.
8D-'\J	[	16Fj/	.
.	.	16Gj/JJ	.
!LO:S:b	!	!	!
(4.D-x\	.	16rj	.
.	.	16Fj/LL	.
.	.	16B-j/	.
.	.	16Gj/	.
.	.	16Fj/	.
.	.	16B-j/JJ	.
4.C\)	.	16rj	.
.	.	16Enj/LL	.
.	.	16B-j/	.
.	.	16Gj/	.
.	.	16Ej/	.
.	.	16B-j/JJ	.
=194	=194	=194	=194
16FF/LL	.	16f/LL	.
16C/	.	16c/	.
16F/	.	16A-/	.
16C/	.	16c/	.
16FF/	.	16f/	.
16C/JJ	.	16c/JJ	.
16FF/LL	.	16a-/LL	.
16C/	.	16c/	.
16FF/	.	16g/	.
16C/	.	16c/	.
16FF/	.	16f/	.
16C/JJ	.	16c/JJ	.
16FF/LL	.	16f/LL	.
16C/	.	16c/	.
16F/	.	16A-/	.
16C/	.	16c/	.
16FF/	.	16f/	.
16C/JJ	.	16c/JJ	.
16FF/LL	.	16a-/LL	.
16C/	.	16c/	.
16FF/	.	16g/	.
16C/	.	16c/	.
16FF/	.	16f/	.
16C/JJ	.	16c/JJ	.
=195	=195	=195	=195
16FF/LL	.	16dd-\LL	.
16D-/	.	16a-\	.
16F/	.	16f\	.
16D-/	.	16a-\	.
16FF/	.	16dd-\	.
16D-/JJ	.	16a-\JJ	.
16FF/LL	.	16ff\LL	.
16D-/	.	16a-\	.
16FF/	.	16ee-\	.
16D-/	.	16a-\	.
16FF/	.	16dd-\	.
16D-/JJ	.	16a-\JJ	.
16FF/LL	.	16dd-\LL	.
16D-/	.	16a-\	.
16F/	.	16f\	.
16D-/	.	16a-\	.
16FF/	.	16dd-\	.
16D-/JJ	.	16a-\JJ	.
16FF/LL	.	16ff\LL	.
16D-/	.	16a-\	.
16FF/	.	16ee-\	.
16D-/	.	16a-\	.
16FF/	.	16dd-\	.
16D-/JJ	.	16a-\JJ	.
=196	=196	=196	=196
[2.GG-\ [2.G-\	.	16bb-\LL	ff
.	.	16ddd-\	.
.	.	16bb-\	.
.	.	16ddd-\	.
.	.	16bb-\	.
.	.	16ddd-\JJ	.
.	.	16bb-\LL	.
.	.	16ddd-\	.
.	.	16bb-\	.
.	.	16ddd-\	.
.	.	16bb-\	.
.	.	16ddd-\JJ	.
4.GG-\] 4.G-\]	.	16bb-\LL	.
.	.	16ddd-\	.
.	.	16bb-\	.
.	.	16ddd-\	.
.	.	16bb-\	.
.	.	16ddd-\JJ	.
8GGn'\ 8Gn'\L	.	16bb-\LL	.
.	.	16ddd-\	.
8BB-'\ 8B-'\	.	16bb-\	.
.	.	16ddd-\	.
8D-'\ 8d-'\J	.	16bb-\	.
.	.	16ddd-\JJ	.
=197	=197	=197	=197
8En'\ 8en'\	.	16bb-\LL	.
.	.	16ddd-\	.
*clefG2	*	*	*
8G'/ 8g'/L	<	16gg\	.
.	(	16bb-\	.
8B-'/ 8b-'/J	(	16ff\	.
.	(	16gg\JJ	.
8d-'/ 8dd-'/L	(	16ff\LL	.
.	(	16gg\	.
8d-'/ 8dd-'/	(	16bb-\	.
.	(	16gg\	.
8d-'/ 8dd-'/J	[	16ff\	.
.	.	16gg\JJ	.
(4.d-z/ 4.dd-z/	.	16r	.
.	.	16ff\LL	.
.	.	16bb-\	.
.	.	16gg\	.
.	.	16ff\	.
.	.	16bb-\JJ	.
4.c/ 4.cc/)	.	16r	.
.	.	16een\LL	.
.	.	16bb-\	.
.	.	16gg\	.
.	.	16ee\	.
.	.	16bb-\JJ	.
=198	=198	=198	=198
(4.f/	.	16r	sf
.	.	16dd-\LL	.
.	.	16bb-\	.
.	.	16gg\	.
.	.	16dd-\	.
.	.	16gg\JJ	.
4.en/)	.	16r	.
.	.	16cc\LL	.
.	.	16bb-\	.
.	.	16gg\	.
.	.	16cc\	.
.	.	16gg\JJ	.
(4.dd-\	.	16r	sf
.	.	16ff\LL	.
.	.	16bb-\	.
.	.	16gg\	.
.	.	16ff\	.
.	.	16bb-\JJ	.
4.cc\)	.	16r	.
.	.	16een\LL	.
.	.	16bb-\	.
.	.	16gg\	.
.	.	16ee\	.
.	.	16bb-\JJ	.
=199	=199	=199	=199
16bn/LL	.	8r	.
16ddn/	.	.	.
16ff/	.	8r	.
[16aa-/JJ	.	.	.
8aa-/_	.	16bbn\LL	.
.	.	16dddn\JJ	.
*^	*	*	*
4.aa-/]	4.b\ 4.dd\ 4.ff\	.	16fff\LL	.
.	.	.	16ddd\	.
.	.	.	16bb\	.
.	.	.	16aaa-\	.
.	.	.	16ggg\	.
.	.	.	16fff\JJ	.
*v	*v	*	*	*
16cc/LL	.	16eeen\LL	.
16een/JJ	.	16ggg\	.
[4ee/ [4gg/	.	16fff\	.
.	.	16eee\	.
.	.	16ddd-\	.
.	.	16ccc\JJ	.
4.ee/] 4.gg/]	.	16bb-\LL	.
.	.	16ddd-\	.
.	.	16ccc\	.
.	.	16bb\	.
.	.	16aa-\	.
.	.	16gg\JJ	.
=200	=200	=200	=200
(4.f/ 4.a-/	.	16r	p
.	.	16ff\LL	.
.	.	16aa-\	.
.	.	16ccc\	.
.	.	16fff\	.
.	.	16ff\JJ	.
4.b-\ 4.dd-\	.	8.r	.
.	.	16fff\LL	.
.	.	16ff\	.
.	.	16fff\JJ	.
4.a-\ 4.cc\	.	8.r	.
.	.	16fff\LL	.
.	.	16ff\	.
.	.	16fff\JJ	.
4.g\ 4.b-\ 4.cc\	.	8.r	sfp
.	.	16eeen\LL	.
.	.	16een\	.
.	.	16eee\JJ	.
=201	=201	=201	=201
4.f/) 4.a-/	.	16r	.
.	.	16ff\LL	.
.	.	16aa-\	.
.	.	16ccc\	.
.	.	16fff\	.
.	.	16ff\JJ	.
*clefF4	*	*	*
4.B-\ (4.d-\	.	8.r	.
.	.	16ff\LL	.
.	.	16f\	.
.	.	16ff\JJ	.
4.A-\ 4.c\	.	8.r	.
.	.	16ff\LL	.
.	.	16f\	.
.	.	16ff\JJ	.
4.G\ 4.B-\ 4.c\)	.	8.r	sfp
.	.	16een\LL	.
.	.	16en\	.
.	.	16ee\JJ	.
=202	=202	=202	=202
4.F\ 4.A-\	.	16r	.
.	.	16ff\LL	.
.	.	16aa-\	.
.	.	16ccc\	.
.	.	16fff\	.
.	.	16ff\JJ	.
(4.BB-/ 4.D-/	.	8.r	.
.	.	16fff\LL	.
.	.	16ff\	.
.	.	16fff\JJ	.
4.AA-/ 4.C/	.	8.r	.
.	.	16fff\LL	.
.	.	16ff\	.
.	.	16fff\JJ	.
4.GG/) 4.BB-/ 4.C/	.	8.r	sfp
.	.	16eeen\LL	.
.	.	16een\	.
.	.	16eee\JJ	.
=203	=203	=203	=203
(2.FF/	.	16fff\LL	p
.	.	16ccc\	.
!	!	!LO:TX:t=dim.	!
.	.	16aa-\	.
.	.	16ccc\	.
.	.	16fff\	.
.	.	16ccc\JJ	.
.	.	16aa-\LL	.
.	.	16ccc\	.
.	.	16fff\	.
.	.	16ccc\	.
.	.	16aa-\	.
.	.	16ccc\JJ	.
4.CC/	.	16fff\LL	.
.	.	16ccc\	.
.	.	16aa-\	.
.	.	16ccc\	.
.	.	16fff\	.
.	.	16ccc\JJ	.
4.AAA-/)	.	16fff\LL	.
.	.	16ccc\	.
.	.	16fff\	.
.	.	16ccc\	.
.	.	16fff\	.
.	.	16ccc\JJ	.
=204	=204	=204	=204
[2.FFF/	.	16fff\LL	pp
.	.	16ccc\	.
.	.	16aa-\	.
.	.	16ccc\	.
.	.	16fff\	.
.	.	16ccc\JJ	.
.	.	16aa-\LL	.
.	.	16ccc\	.
.	.	16fff\	.
.	.	16ccc\	.
.	.	16aa-\	.
.	.	16ccc\JJ	.
4.FFF/]	.	16fff\LL	.
.	.	16ccc\	.
.	.	16aa-\	.
.	.	16ccc\	.
.	.	16fff\	.
.	.	16ccc\JJ	.
([4AAA-/	.	16aa-\LL	.
.	.	16ccc\	.
.	.	16fff\	.
.	.	16ccc\	.
16AAA-/LL]	.	16aa-\	.
16CC/JJ	.	16ccc\JJ	.
=205	=205	=205	=205
4.FF/	.	16fff\LL	.
.	.	16ccc\	.
.	.	16aa-\	.
.	.	16ccc\	.
.	.	16fff\	.
.	.	16ccc\JJ	.
[4AA-/	.	16aa-\LL	.
.	.	16ccc\	.
.	.	16fff\	.
.	.	16ccc\	.
16AA-/LL]	.	16aa-\	.
16C/JJ	.	16ccc\JJ	.
4.F\	.	16fff\LL	.
.	.	16ccc\	.
.	.	16aa-\	.
.	.	16ccc\	.
.	.	16fff\	.
.	.	16ccc\JJ	.
4.FF/)	.	16aa-\LL	.
.	.	16ccc\	.
.	.	16fff\	.
.	.	16ccc\	.
.	.	16aa-\	.
.	.	16ccc\JJ	.
=206	=206	=206	=206
[2.GG-/	.	16eee-\LL	.
.	.	16ccc\	.
.	.	16aa-\	.
.	.	16ccc\	.
.	.	16eee-\	.
.	.	16ccc\JJ	.
.	.	16aa-\LL	.
.	.	16ccc\	.
.	.	16eee-\	.
.	.	16ccc\	.
.	.	16aa-\	.
.	.	16ccc\JJ	.
4.GG-/]	.	16eee-\LL	.
.	.	16ccc\	.
.	.	16aa-\	.
.	.	16ccc\	.
.	.	16eee-\	.
.	.	16ccc\JJ	.
!LO:S:b	!	!	!
([4C/	.	16aa-\LL	.
.	.	16ccc\	.
.	.	16eee-\	.
.	.	16ccc\	.
16C/LL]	.	16aa-\	.
16E-/JJ	.	16ccc\JJ	.
=207	=207	=207	=207
4.G-\	.	16eee-\LL	.
.	.	16ccc\	.
.	.	16aa-\	.
.	.	16ccc\	.
.	.	16eee-\	.
.	.	16ccc\JJ	.
[4c\	.	16aa-\LL	.
.	.	16ccc\	.
.	.	16eee-\	.
.	.	16ccc\	.
16c\LL]	.	16aa-\	.
16e-\JJ	.	16ccc\JJ	.
4.g-\	.	16eee-\LL	.
.	.	16ccc\	.
.	.	16aa-\	.
.	.	16ccc\	.
.	.	16eee-\	.
.	.	16ccc\JJ	.
4.G-\)	.	16aa-\LL	.
.	.	16ccc\	.
.	.	16eee-\	.
.	.	16ccc\	.
.	.	16aa-\	.
.	.	16ccc\JJ	.
=208	=208	=208	=208
!LO:S:b	!	!	!
!	!	!LO:TX:t=cresc.	!
(4.F\	.	16fff\LL	.
.	.	16ddd-\	.
.	.	16aa-\	.
.	.	16ddd-\	.
.	.	16fff\	.
.	.	16ddd-\JJ	.
[4A-\	.	16aa-\LL	.
.	.	16ddd-\	.
.	.	16fff\	.
.	.	16ddd-\	.
16A-\LL]	.	16aa-\	.
16d-\JJ	.	16ddd-\JJ	.
4.f\	.	16fff\LL	.
.	.	16ddd-\	.
.	.	16aa-\	.
.	.	16ddd-\	.
.	.	16fff\	.
.	.	16ddd-\JJ	.
4.F\)	.	16aa-\LL	.
.	.	16ddd-\	.
.	.	16fff\	.
.	.	16ddd-\	.
.	.	16aa-\	.
.	.	16ddd-\JJ	.
=209	=209	=209	=209
([4E-\	.	16ggg-\LL	.
.	.	16ccc\	.
.	.	16aa-\	.
.	.	16ccc\	.
16E-\LL]	.	16ggg-\	.
16G-\JJ	.	16ccc\JJ	.
[4A-\	.	16aa-\LL	.
.	.	16ccc\	.
.	.	16ggg-\	.
.	.	16ccc\	.
16A-\LL]	.	16aa-\	.
16c\JJ	.	16ccc\JJ	.
*clefG2	*	*	*
[4e-/	.	16ggg-\LL	.
.	.	16ccc\	.
.	.	16aa-\	.
.	.	16ccc\	.
16e-/LL]	.	16ggg-\	.
16g-/JJ	.	16ccc\JJ	.
[4a-/	.	16ggg-\LL	.
.	.	16eee-\	.
.	.	16aa-\	.
.	.	16eee-\	.
16a-/LL]	.	16ggg-\	.
16cc/JJ)	.	16eee-\JJ	.
=210	=210	=210	=210
(8d-/L	.	4fff\	p
8f/ 8a-/ 8dd-/	.	.	.
8d-/J	.	8r	.
8f/ 8a-/ 8dd-/L	.	4r	.
8d-/	.	.	.
8f/ 8a-/ 8dd-/J	.	8r	.
8d-/L	.	4r	.
8f/ 8a-/ 8dd-/	.	.	.
8d-/J	.	8r	.
8f/ 8a-/ 8dd-/L	.	([4ff\	.
8d-/	.	.	.
8f/ 8a-/ 8dd-/J)	.	16ff\LL]	.
.	.	16aa-\JJ	.
=211	=211	=211	=211
(8d-/L	.	4.ddd-\	.
8f/ 8a-/ 8dd-/	.	.	.
8d-/J	.	.	.
8f/ 8a-/ 8dd-/L	.	[4fff\	.
8d-/	.	.	.
8f/ 8a-/ 8dd-/J	.	16fff\LL]	.
.	.	16ddd-\JJ	.
8e-/L	.	4.ccc\	.
8g-/ 8a-/ 8ee-/	.	.	.
8e-/J	.	.	.
8g-/ 8a-/ 8ee-/L	.	[4eee-\	.
8e-/	.	.	.
8g-/) 8a-/ 8ee-/J	.	16eee-\LL]	.
.	.	16ccc\JJ)	.
=212	=212	=212	=212
8f/L	.	(4.ddd-\	.
8a-/ 8dd-/ 8ff/	.	.	.
8f/J	.	.	.
8a-/ 8dd-/ 8ff/L	.	2.aa-\)	.
8f/	.	.	.
8a-/ 8dd-/ 8ff/J	.	.	.
8f/L	.	.	.
8a-/ 8dd-/ 8ff/	.	.	.
8f/J	.	.	.
8a-/ 8dd-/L	.	([4ff\	.
8f/	.	.	.
8a-/ 8dd-/J	.	16ff\LL]	.
.	.	16aa-\JJ	.
=213	=213	=213	=213
!	!	!LO:TX:t=cresc.	!
8f/L	.	4.ddd-\	.
8a-/ 8dd-/ 8ff/	.	.	.
8f/J	.	.	.
8a-/ 8dd-/ 8ff/L	.	[4fff\	.
8f/	.	.	.
8a-/ 8dd-/ 8ff/J	.	16fff\LL]	.
.	.	16ddd-\JJ	.
8f#/L	.	4.ccc\	.
8an/ 8cc/ 8ee-/	.	.	.
8f#/J	.	.	.
8a/ 8cc/ 8ee-/L	.	[4eee-\	.
8f#/	.	.	.
8a/ 8cc/ 8ee-/J	.	16eee-\LL]	.
.	.	16ccc\JJ)	.
=214	=214	=214	=214
8fn/L	.	(4.bbn\	.
8a-X/ 8bn/ 8ddn/	.	.	.
8f/J	.	.	.
8a-/ 8b/ 8dd/L	.	2.dddnz\)	.
8f/	.	.	.
8a-/ 8b/ 8dd/J	.	.	.
8f/L	.	.	.
8a-/ 8b/ 8dd/	.	.	.
8f/J	.	.	.
8a-/ 8b/ 8dd/L	.	[4ddd\	.
8f/	.	.	.
8a-/ 8b/ 8dd/J	.	16ddd\LL]	.
.	.	16bb\JJ	.
=215	=215	=215	=215
8en\L	.	(4.ccc\	.
8g\ 8cc\ 8een\	.	.	.
8e\J	.	.	.
8g\ 8cc\ 8ee\L	.	2.eeenz\)	.
8e\	.	.	.
8g\ 8cc\ 8ee\J	.	.	.
8e\L	.	.	.
8g\ 8cc\ 8ee\	.	.	.
8e\J	.	.	.
8g\ 8cc\ 8ee\L	.	[4gg\ [4ggg\	.
8e\	.	.	.
8g\ 8cc\ 8ee\J	.	16gg\] 16ggg\LL]	.
.	.	16ff\ 16fff\JJ	.
=216	=216	=216	=216
8B-X/L	.	4.een\ (4.eeen\	.
8d-/ 8en/ 8g/	.	.	.
8B-/J	.	.	.
8d-/ 8e/ 8g/L	.	[4.ggz\ [4.gggz\)	.
8B-/	.	.	.
8d-/ 8e/ 8g/J	.	.	.
8B-/L	.	4.gg\] 4.ggg\]	.
8d-/ 8e/ 8g/	.	.	.
8B-/J	.	.	.
8d-/ 8e/ 8g/L	.	[4gg\ [4ggg\	.
8B-/	.	.	.
8d-/ 8e/ 8g/J	.	16gg\] 16ggg\LL]	.
.	.	16ee\ 16eee\JJ	.
=217	=217	=217	=217
8A-/L	.	4.ff\ (4.fff\	.
8c/ 8f/ 8a-/	.	.	.
8A-/J	.	.	.
8c/ 8f/ 8a-/L	.	[4.aa-z\ [4.aaa-\z)	.
8A-/	.	.	.
8c/ 8f/ 8a-/J	.	.	.
8A-/L	.	4.aa-\] 4.aaa-\]	.
8c/ 8f/ 8a-/	.	.	.
8A-/J	.	.	.
8c/ 8f/ 8a-/L	.	[4aa-\ [4aaa-\	.
8A-/	.	.	.
8c/ 8f/ 8a-/J	.	16aa-\] 16aaa-\LL]	.
.	.	16ff\ 16fff\JJ	.
=218	=218	=218	=218
*clefF4	*	*	*
*ped	*	*	*
8BBB-/ 8BB-/	.	16r	ff
.	.	(16d-/LL	.
8r	.	16B-/	.
.	.	16g-/JJ)	.
(16D-\LL	.	8r	.
16G-\JJ	.	.	.
8B-\)	.	16r	.
.	.	(16g-/LL	.
8r	.	16d-/	.
.	.	16b-/JJ)	.
(16G-\LL	.	8r	.
16B-\JJ	.	.	.
8d-\)	.	16r	.
.	.	(16b-/LL	.
8r	.	16g-/	.
.	.	16dd-/JJ)	.
*clefG2	*	*	*
(16B-/LL	.	8r	.
16d-/JJ	.	.	.
8g-/)	.	16r	.
.	.	(16dd-\LL	.
8r	.	16b-\	.
.	.	16gg-\JJ)	.
(16d-/LL	.	8r	.
16g-/JJ	.	.	.
=219	=219	=219	=219
8b-/)	.	16r	.
.	.	(16gg-\LL	.
8r	.	16dd-\	.
.	.	16bb-\JJ)	.
(16g-\LL	.	8r	.
16b-\JJ	.	.	.
8dd-\)	.	16r	.
.	.	(16bb-\LL	.
8r	.	16gg-\	.
.	.	16ddd-\JJ)	.
(16b-\LL	.	8r	.
16dd-\JJ	.	.	.
8gg-\)	.	16r	.
.	.	(16ddd-\LL	.
8r	.	16bb-\	.
.	.	16ggg-\JJ)	.
(16dd-\LL	.	8r	.
16gg-\JJ	.	.	.
8bb-\)	.	8r	.
8r	.	(16ggg-\LL	.
.	.	16ddd-\J	.
8r	.	8bbb-\J)	.
.	.	.	.
*Xped	*	*	*
*clefF4	*	*	*
=220	=220	=220	=220
*ped	*	*	*
8CC/ 8C/	.	16r	ff
.	.	(16e-/LL	.
8r	.	16c/	.
.	.	16an/JJ)	.
(16E-\LL	.	8r	.
16An\JJ	.	.	.
8c\)	.	16r	.
.	.	(16a/LL	.
8r	.	16e-/	.
.	.	16cc/JJ)	.
*clefG2	*	*	*
(16An/LL	.	8r	.
16c/JJ	.	.	.
8e-/)	.	16r	.
.	.	(16cc\LL	.
8r	.	16a\	.
.	.	16ee-\JJ)	.
(16c/LL	.	8r	.
16e-/JJ	.	.	.
8an/)	.	16r	.
.	.	(16ee-\LL	.
8r	.	16cc\	.
.	.	16aan\JJ)	.
(16e-/LL	.	8r	.
16a/JJ	.	.	.
=221	=221	=221	=221
8cc/)	.	16r	.
.	.	(16aan\LL	.
8r	.	16ee-\	.
.	.	16ccc\JJ)	.
(16an\LL	.	8r	.
16cc\JJ	.	.	.
8ee-\)	.	16r	.
.	.	(16ccc\LL	.
8r	.	16aa\	.
.	.	16eee-\JJ)	.
(16cc\LL	.	8r	.
16ee-\JJ	.	.	.
8aan\)	.	16r	.
.	.	(16eee-\LL	.
8r	.	16ccc\	.
.	.	16aaan\JJ)	.
(16ee-\LL	.	8r	.
16aa\JJ	.	.	.
8ccc\)	.	8r	.
8r	.	(16aaa\LL	.
.	.	16eee-\J	.
8r	.	8cccc\J)	.
*clefF4	*	*	*
=222	=222	=222	=222
*ped	*	*	*
8DD-/ 8D-/	.	16r	.
.	.	(16f/LL	.
8r	.	16d-/	.
.	.	16b-/JJ)	.
(16F\LL	.	8r	.
16B-\JJ	.	.	.
8d-\)	.	8r	.
8r	.	(16b-/LL	.
.	.	16f/J	.
8r	.	8dd-/J)	.
*Xped	*	*	*
*ped	*	*	*
8EEn/ 8En/	.	16r	.
.	.	(16g/LL	.
8r	.	16en/	.
.	.	16cc/JJ)	.
(16G\LL	.	8r	.
16c\JJ	.	.	.
8en\)	.	8r	.
8r	.	(16cc\LL	.
.	.	16g\J	.
8r	.	8een\J)	.
*Xped	*	*	*
=223	=223	=223	=223
*ped	*	*	*
8FF/ 8F/	.	16r	.
.	.	(16a-/LL	.
8r	.	16f/	.
.	.	16dd-/JJ)	.
(16A-\LL	.	8r	.
16d-\JJ	.	.	.
8f\)	.	8r	.
8r	.	(16dd-\LL	.
.	.	16a-\J	.
8r	.	8ff\J)	.
*Xped	*	*	*
*ped	*	*	*
8GG/ 8G/	.	16r	.
.	.	(16b-\LL	.
8r	.	16g\	.
.	.	16een\JJ)	.
(16B-\LL	.	8r	.
16en\JJ	.	.	.
8g\)	.	8r	.
8r	.	(16ee\LL	.
.	.	16b-\J	.
8r	.	8gg\J)	.
*Xped	*	*	*
=224	=224	=224	=224
8AA-/	.	16r	.
.	.	(16cc\LL	.
8r	.	16a-\	.
.	.	16ff\JJ)	.
16A-\LL	.	8r	.
16c\JJ	.	.	.
8BB-/	.	16r	.
.	.	(16dd-\LL	.
8r	.	16b-\	.
.	.	16gg\JJ)	.
16B-\LL	.	8r	.
16d-\JJ	.	.	.
8C/	.	16r	.
.	.	(16ee-\LL	.
8r	.	16cc\	.
.	.	16aan\JJ)	.
16c\LL	.	8r	.
16e-\JJ	.	.	.
8D-\	.	16r	.
.	.	(16ff\LL	.
8r	.	16dd-\	.
.	.	16bb-\JJ)	.
16d-\LL	.	8r	.
16f\JJ	.	.	.
=225	=225	=225	=225
8En\	.	16r	.
.	.	(16gg\LL	.
8r	.	16een\	.
.	.	16ccc\JJ)	.
*clefG2	*	*	*
16en/LL	.	8r	.
16g/JJ	.	.	.
8F/	.	16r	.
.	.	(16aa-\LL	.
8r	.	16ff\	.
.	.	16ddd-\JJ)	.
16f/LL	.	8r	.
16a-/JJ	.	.	.
8G/	.	16r	.
.	.	(16bb-\LL	.
8r	.	16gg\	.
.	.	16eeen\JJ)	.
16g/LL	.	8r	.
16b-/JJ	.	.	.
8A-/	.	16r	.
.	.	(16ccc\LL	.
8r	.	16aa-\	.
.	.	16fff\JJ)	.
16a-/LL	.	8r	.
16cc/JJ	.	.	.
=226	=226	=226	=226
8B-/	.	16r	.
.	.	(16ddd-\LL	.
8r	.	16bb-\	.
.	.	16ggg\JJ)	.
16b-\LL	.	8r	.
16dd-\JJ	.	.	.
8c/	.	16r	.
.	.	(16eee-X\LL	.
8r	.	16ccc\	.
.	.	16aaan\JJ)	.
16cc\LL	.	8r	.
16ee-\JJ	.	.	.
8d-/	.	16r	.
.	.	(16fff\LL	.
8r	.	16ddd-\	.
.	.	16bbb-\JJ)	.
16dd-\LL	.	8r	.
16ff\JJ	.	.	.
8d-/	.	16r	.
.	.	(16fff\LL	.
8r	.	16ddd-\	.
.	.	16bbb-\JJ)	.
16dd-\LL	.	8r	.
16ff\JJ	.	.	.
=227	=227	=227	=227
*ped	*	*	*
16d-/LL	.	8r	ff
16dd-/	.	.	.
16ff/JJ	.	16r	.
16r	.	16fff\LL	.
8r	.	16ddd-\	.
.	.	16bbb-\JJ	.
4r	.	16fff\LL	.
.	.	16ddd-\	.
.	.	16bb-\	.
.	.	16ff\	.
8r	.	16dd-\	.
.	.	16bb-\JJ	.
2.r	.	16ff\LL	.
.	.	16dd-\	.
.	.	16b-\	.
.	.	16f\	.
.	.	16d-\	.
.	.	16b-\JJ	.
*	*	*clefF4	*clefF4
.	.	16f\LL	.
.	.	16d-\	.
.	.	16B-\	.
.	.	16F\	.
.	.	16D-\	.
.	.	16B-\JJ	.
*clefF4	*	*	*
=228	=228	=228	=228
1.r	.	16Fj/LL	.
.	.	16D-j/	.
.	.	16BB-j/	.
.	.	16D-j/	.
.	.	16F/	.
.	.	16B-/JJ	.
*	*	*clefG2	*clefG2
.	.	16d-\LL	.
.	.	16f\	.
.	.	16b-\	.
.	.	16dd-\	.
.	.	16ff\	.
.	.	16dd-\JJ	.
.	.	16b-\LL	.
.	.	16dd-\	.
.	.	16ff\	.
.	.	16bb-\	.
.	.	16ddd-\	.
.	.	16bb-\JJ	.
*	*	*8va	*
.	.	16fff\LL	.
.	.	16ddd-\	.
.	.	16bbb-\	.
.	.	16fff\	.
.	.	16ddd-\	.
.	.	16bb-\JJ	.
*clefG2	*	*	*
=229	=229	=229	=229
*ped	*	*	*
16dn/LL	.	8r	ff
16ddn/	.	.	.
16ff/JJ	.	16r	.
16r	.	16aaa-\LL	.
8r	.	16fff\	.
.	.	16bbbn\JJ	.
4r	.	16aaa-\LL	.
.	.	16fff\	.
.	.	16dddn\	.
.	.	16bbn\	.
8r	.	16aa-\	.
.	.	16ff\JJ	.
*	*	*X8va	*
2.r	.	16bb\LL	.
.	.	16aa-\	.
.	.	16ff\	.
.	.	16ddny\	.
.	.	16bny\	.
.	.	16a-\JJ	.
.	.	16dd\LL	.
.	.	16b\	.
.	.	16a-\	.
.	.	16f\	.
.	.	16dn\	.
.	.	16Bn\JJ	.
*clefF4	*	*	*
=230	=230	=230	=230
1.r	.	16a-/LL	.
.	.	16f/	.
.	.	16dn/	.
.	.	16Bnj/	.
.	.	16A-j/	.
.	.	16Fj/JJ	.
.	.	16Dnj\LL	.
.	.	16BBnj\	.
.	.	16Dj\	.
.	.	16Fj\JJ	.
.	.	16A-j/LL	.
.	.	16B-j/JJ	.
.	.	16d\LL	.
.	.	16f\	.
.	.	16a-\	.
.	.	16bn\	.
.	.	16ddn\	.
.	.	16ff\JJ	.
*	*	*8va	*
.	.	16aa-\LL	.
.	.	16bbny\	.
.	.	16dddny\	.
.	.	16fff\	.
.	.	16aaa-\	.
.	.	16bbbn\JJ	.
*Xped	*	*	*
=231	=231	=231	=231
*ped	*	*	*
8CC/	.	8r	ff
8r	.	16r	.
.	.	16aaa-\LL	.
8r	.	16fff\	.
.	.	16cccc\JJ	.
4r	.	16aaa-\LL	.
.	.	16fff\	.
.	.	16ccc\	.
.	.	16aa-\	.
8r	.	16ff\	.
.	.	16ccc\JJ	.
*	*	*X8va	*
2.r	.	16aa-\LL	.
.	.	16ff\	.
.	.	16cc\	.
.	.	16a-\	.
.	.	16f\	.
.	.	16cc\JJ	.
.	.	16a-\LL	.
.	.	16f\	.
.	.	16cj\	.
.	.	16A-j\	.
.	.	16Fj\	.
.	.	16cj\JJ	.
=232	=232	=232	=232
16A-/LL	.	2.r	.
16F/JJ	.	.	.
16C\LL	.	.	.
16AA-\	.	.	.
16FF\	.	.	.
16CC\JJ	.	.	.
16FF\LL	.	.	.
16AA-\	.	.	.
16C\JJ	.	.	.
16F/LL	.	.	.
16A-/	.	.	.
16c/JJ	.	.	.
2.r	.	16f\LL	.
.	.	16a-\	.
.	.	16cc\	.
.	.	16ff\	.
.	.	16aa-\	.
.	.	16ccc\JJ	.
*	*	*8va	*
.	.	16fff\LL	.
.	.	16aaa-\	.
.	.	16cccc\	.
.	.	16aaa-\	.
.	.	16fff\	.
.	.	16ccc\JJ	.
*Xped	*	*	*
=233	=233	=233	=233
16CC\LL	.	8r	ff
16C\	.	.	.
16En\	.	16r	.
16G\J	.	16ggg\LL	.
8B-\J	.	16eeen\	.
.	.	16bbb-\JJ	.
4r	.	16ggg\LL	.
.	.	16eee\	.
.	.	16ccc\	.
*	*	*X8va	*
.	.	16bb-\	.
8r	.	16gg\	.
.	.	16ee\JJ	.
2.r	.	16cc/LL	.
.	.	16b-/	.
.	.	16g/	.
.	.	16en/	.
.	.	16cj/	.
.	.	16B-j/JJ	.
.	.	16Gj/LL	.
.	.	16Enj/	.
.	.	16Cj/JJ	.
.	.	16BB-j\LL	.
.	.	16GGj\	.
.	.	16EEnj\JJ	.
=234	=234	=234	=234
*ped	*	*	*
1.r	.	16CCj\LL	.
.	.	16EEnj\	.
.	.	16GGj\	.
.	.	16BB-j\JJ	.
.	.	16Cj/LL	.
.	.	16Enj/JJ	.
.	.	16G/jLL	.
.	.	16B-j/	.
.	.	16cj/	.
.	.	16en/	.
.	.	16g/	.
.	.	16b-/JJ	.
.	.	16cc\LL	.
.	.	16een\	.
.	.	16gg\	.
.	.	16ee\	.
.	.	16cc\	.
.	.	16ee\JJ	.
.	.	16gg\LL	.
.	.	16ee\	.
.	.	16bb-\	.
.	.	16gg\	.
.	.	16ee\	.
.	.	16gg\JJ	.
=235	=235	=235	=235
*MM140	*	*MM140	*MM140
4r	.	4bb-\	p
!LO:TX:a:t=dim.	!	!LO:TX:a:t=rit.	!
8r	.	8r	.
8D-/L	.	4r	.
8D-/	.	.	.
8D-/J	.	8r	.
4C/	.	4r	.
8r	.	8r	.
4r	.	8een\ 8gg\L	.
.	.	8ee\ 8gg\	.
8r	.	8ee\ 8gg\J	.
=236	=236	=236	=236
*MM130	*	*MM130	*MM130
4r	.	4gg\ 4bb-\	.
8r	.	8r	.
8D-/L	.	4r	.
8D-/	.	.	.
8D-/J	.	8r	.
4C/	.	4r	.
8r	.	8r	.
4r	.	8en/ 8g/L	.
.	.	8e/ 8g/	.
8r	.	8e/ 8g/J	.
=237	=237	=237	=237
*MM120	*	*MM120	*MM120
4r	.	4g/ 4b-/	.
8r	.	8r	.
8DD-/L	.	4r	.
8DD-/	.	.	.
8DD-/J	.	8r	.
*Xped	*	*	*
*MM110	*	*MM110	*MM110
4.CC/	.	2.r	.
8DD-/L	.	.	.
8DD-/	.	.	.
8DD-/J	.	.	.
=238	=238	=238	=238
!!!OMD: Adagio
*MM100	*	*MM100	*MM100
4.CC/	.	4r	.
.	.	8r	.
*MM90	*	*MM90	*MM90
(8DD-'/L	.	8g'\ 8b-'\ (8een'\L	pp<
8DD-'/	.	8g'\ 8b-'\ 8ee'\	(
8DD-'/J)	.	8g'\ 8b-'\ 8ee'\J)	(
*ped	*	*	*
4.CC/	.	4.g;\ 4.b-;\ 4.ee;\	[
.	.	.	.
*Xped	*	*	*
=	=	=	=
!!!OMD: Pi&ugrave; allegro
*MM144	*	*MM144	*MM144
8CC/ 8C/L	.	8een\ 8gg\ 8bb-\ 8ccc\ 8eeen\L	ff
8CC/ 8C/	.	8ee\ 8gg\ 8bb-\ 8ccc\ 8eee\	.
8CC/ 8C/J	.	8ee\ 8gg\ 8bb-\ 8ccc\ 8eee\J	.
=239	=239	=239	=239
!	!LO:DY:a	!	!
8FFF/ 8FF/	p	4ff\ 4aa-\ 4ccc\ 4fff\	.
*clefG2	*	*	*
8c/ 8f/L	.	.	.
8A-/J	.	8r	.
8c/ 8f/L	.	4r	.
8A-/	.	.	.
8c/ 8f/J	.	8r	.
8A-/L	.	4r	.
8c/ 8f/	.	.	.
8A-/J	.	8r	.
8c/ 8f/L	.	([4a-\	p
8A-/	.	.	.
8c/ 8f/J	.	16a-\LL]	.
.	.	16cc\JJ	.
=240	=240	=240	=240
(8A-/L	.	4.ff\	.
8c/ 8f/	.	.	.
8A-/J	.	.	.
8c/ 8f/L	.	[4aa-\	.
8A-/	.	.	.
8c/ 8f/J	.	16aa-\LL]	.
.	.	16ff\JJ	.
8B-/L	.	4.een\	.
8c/ 8g/	.	.	.
8B-/J	.	.	.
8c/ 8g/L	.	[4gg\	.
8B-/	.	.	.
8c/) 8g/J	.	16gg\LL]	.
.	.	16ee\JJ)	.
=241	=241	=241	=241
(8A-/L	.	(4.ff\	.
8c/ 8f/	.	.	.
8A-/J	.	.	.
8c/ 8f/L	.	2.cc\)	.
8A-/	.	.	.
8c/ 8f/J	.	.	.
8A-/L	.	.	.
8c/ 8f/	.	.	.
8A-/J	.	.	.
8c/ 8f/L	.	[4a-\ ([4aa-\	.
8A-/	.	.	.
8c/ 8f/J)	.	16a-\] 16aa-\LL]	.
.	.	16cc\ 16ccc\JJ	.
=242	=242	=242	=242
*	*	*8va	*
(8A-/L	.	4.ff\ 4.fff\	.
8c/ 8f/ 8a-/	.	.	.
8A-/J	.	.	.
8c/ 8f/ 8a-/L	.	[4aa-\ [4aaa-\	.
8A-/	.	.	.
8c/ 8f/ 8a-/J	.	16aa-\] 16aaa-\LL]	.
.	.	16ff\ 16fff\JJ	.
8B-/L	.	4.een\ 4.eeen\	.
8c/ 8en/ 8g/	.	.	.
8B-/J	.	.	.
8c/ 8e/ 8g/L	.	[4gg\ [4ggg\	.
8B-/	.	.	.
8c/) 8e/ 8g/J	.	16gg\] 16ggg\LL]	.
.	.	16ee\ 16eee\JJ)	.
=243	=243	=243	=243
(8An/L	.	(4.gg-z\ 4.ggg-z\	.
8c/ 8e-/ 8g-/	.	.	.
8A/J	.	.	.
8c/ 8e-/ 8g-/L	.	[4.cc/ [4.ccc/)	.
8A/	.	.	.
8c/ 8e-/ 8g-/J	.	.	.
8A/L	.	4.cc/] 4.ccc/]	.
8c/ 8e-/ 8g-/	.	.	.
8A/J	.	.	.
*	*	*X8va	*
8c/ 8e-/ 8g-/L	.	[4ee-\ [4eee-\	.
8A/	.	.	.
8c/) 8e-/ 8g-/J	.	16ee-\] 16eee-\LL]	.
.	.	16cc\ 16ccc\JJ	.
=244	=244	=244	=244
(8An/L	.	4.ffz\ (4.fffz\	.
8c/ 8e-/ 8f/	.	.	.
8A/J	.	.	.
8d-/ 8f/L	.	[4.b-\ [4.bb-\)	.
8B-/	.	.	.
8d-/ 8f/J	.	.	.
8B-/L	.	4.b-\] 4.bb-\]	.
8d-/ 8f/	.	.	.
8B-/J	.	.	.
8en/ 8gn/L	.	[4dd-\ [4ddd-\	.
8B-/	.	.	.
8e/) 8g/J	.	16dd-\] 16ddd-\LL]	.
.	.	16b-\ 16bb-\JJ	.
*clefF4	*	*	*
=245	=245	=245	=245
(8C\L	.	4.a-\ 4.aa-\	.
8F\ 8A-X\ 8c\	.	.	.
8C\J	.	.	.
8F\ 8A-\ 8c\L	.	[4cc\ [4ccc\	.
8C\	.	.	.
8F\ 8A-\ 8c\J	.	16cc\] 16ccc\LL]	.
.	.	16a-\ 16aa-\JJ	.
8BB-\L	.	4.g\ 4.gg\	.
8C\ 8En\ 8G\	.	.	.
8BB-\J	.	.	.
8C\ 8E\ 8G\L	.	[4gg\ [4ggg\	.
8BB-\	.	.	.
8C\ 8E\ 8G\J)	.	16gg\] 16ggg\LL]	.
.	.	16een\ 16eeen\JJ	.
=246	=246	=246	=246
(8AAn\L	.	4.gg-z\ (4.ggg-z\	.
8E-\ 8G-\ 8An\	.	.	.
8AA\J	.	.	.
8E-\ 8G-\ 8A\L	.	[4.cc\ [4.ccc\)	.
8AA\	.	.	.
8E-\ 8G-\ 8A\J	.	.	.
8AA\L	.	4.cc\] 4.ccc\]	.
8E-\ 8G-\ 8A\	.	.	.
8AA\J	.	.	.
8E-\ 8G-\ 8A\L	.	[4ee-\ [4eee-\	.
8AA\	.	.	.
8E-\ 8G-\ 8A\J)	.	16ee-\] 16eee-\LL]	.
.	.	16cc\ 16ccc\JJ	.
=247	=247	=247	=247
(8AAn\L	.	4.ffz\ (4.fffz\	.
8E-\ 8F\ 8An\	.	.	.
8AA\J	.	.	.
8D-\ 8F\ 8B-\L	.	[4.b-\ [4.bb-\)	.
8BB-\	.	.	.
8D-\ 8F\ 8B-\J	.	.	.
8BB-\L	.	4.b-\] 4.bb-\]	.
8D-\ 8F\ 8B-\	.	.	.
8BB-\J	.	.	.
8En\ 8Gn\ 8B-\L	.	[4dd-\ [4ddd-\	.
8BB-\	.	.	.
8E\ 8G\ 8B-\J)	.	16dd-\] 16ddd-\LL]	.
.	.	16b-\ 16bb-\JJ	.
=248	=248	=248	=248
(8C\L	.	4.a-\ 4.aa-\	.
8F\ 8A-X\ 8c\	.	.	.
8C\J	.	.	.
8F\ 8A-\ 8c\L	.	[4cc\ [4ccc\	.
8C\	.	.	.
8F\ 8A-\ 8c\J	.	16cc\] 16ccc\LL]	.
.	.	16a-\ 16aa-\JJ	.
8C\L	.	4.g\ (4.gg\	.
8En\ 8G\ 8c\	.	.	.
8C\J	.	.	.
8E\ 8G\ 8c\L	.	4cc\ 4ccc\)	.
8C\	.	.	.
8E\ 8G\ 8c\J)	.	8cc\ 8ccc\	.
=249	=249	=249	=249
4FF/ 4AA-/ 4C/ 4F/	.	8cc\ 8ccc\	.
.	.	8c/ 8f/ 8a-/ 8cc/L	.
8r	.	8c/ 8f/ 8a-/ 8cc/J	.
8r	.	4.cz/ 4.fz/ 4.a-z/ 4.ccz/	.
8F\ 8A-\L	.	.	.
8F\ 8A-\J	.	.	.
4En\ 4G\	.	8r	.
.	.	8c/ 8en/ 8g/ 8cc/L	.
8r	.	8c/ 8e/ 8g/ 8cc/J	.
8r	.	4.cz/ 4.gz/ 4.b-z/ 4.ccz/	.
8G\ 8B-\L	.	.	.
8G\ 8B-\J	.	.	.
=250	=250	=250	=250
4F\ 4A-\	.	8r	.
.	.	8c/ 8f/ 8a-/ 8cc/L	.
8r	.	8c/ 8f/ 8a-/ 8cc/J	.
8r	.	4.cz/ 4.fz/ 4.a-z/ 4.ccz/	.
8F\ 8A-\L	.	.	.
8F\ 8A-\J	.	.	.
4En\ 4G\	.	8r	.
.	.	8c/ 8en/ 8g/ 8cc/L	.
8r	.	8c/ 8e/ 8g/ 8cc/J	.
8r	.	4.cz/ 4.gz/ 4.b-z/ 4.ccz/	.
8G\ 8B-\L	.	.	.
8G\ 8B-\J	.	.	.
=251	=251	=251	=251
8F\ 8A-\	.	8r	.
8r	.	8c/ 8f/ 8a-/ 8cc/	.
8F\ 8A-\	.	8r	.
8r	.	8d-/ 8f/ 8g/ 8dd-/	.
8BB-\ 8F\ 8G\	.	8r	.
8r	.	8d-/ 8f/ 8g/ 8dd-/	.
8C\ 8F\ 8A-\	.	8r	.
8r	.	8c/ 8f/ 8a-/ 8cc/	.
8C\ 8F\ 8A-\	.	8r	.
8r	.	8c/ 8en/ 8g/ 8cc/	.
8C\ 8En\ 8G\	.	8r	.
8r	.	8c/ 8e/ 8g/ 8cc/	.
=252	=252	=252	=252
8FF/ 8AA-/ 8C/ 8F/	.	8c/ 8f/ 8a-/ 8cc/	.
*	*	*clefF4	*clefF4
8r	.	8C\ 8F\ 8A-\ 8c\L	.
8r	.	8C\ 8F\ 8A-\ 8c\J	.
8r	.	4.Cz\ 4.Fz\ 4.A-z\ 4.cz\	.
8FF/ 8AA-/L	.	.	.
8FF/ 8AA-/J	.	.	.
4EEn/ 4GG/	.	8r	.
.	.	8C\ 8En\ 8G\ 8c\L	.
8r	.	8C\ 8E\ 8G\ 8c\J	.
8r	.	4.Cz\ 4.Gz\ 4.B-z\ 4.cz\	.
8GG/ 8BB-/L	.	.	.
8GG/ 8BB-/J	.	.	.
=253	=253	=253	=253
4FF/ 4AA-/	.	8r	.
.	.	8C\ 8F\ 8A-\ 8c\L	.
8r	.	8C\ 8F\ 8A-\ 8c\J	.
8r	.	4.Cz\ 4.Fz\ 4.A-z\ 4.cz\	.
8FF/ 8AA-/L	.	.	.
8FF/ 8AA-/J	.	.	.
4EEn/ 4GG/	.	8r	.
.	.	8C\ 8En\ 8G\ 8c\L	.
8r	.	8C\ 8E\ 8G\ 8c\J	.
8r	.	4.Cz\ 4.Gz\ 4.B-z\ 4.cz\	.
8GG/ 8BB-/L	.	.	.
8GG/ 8BB-/J	.	.	.
=254	=254	=254	=254
8FF/ 8AA-/	.	8r	.
8r	.	8C\ 8F\ 8A-\ 8c\	.
8FF/ 8AA-/	.	8r	.
8r	.	8D-\ 8F\ 8G\ 8d-\	.
8BBB-/ 8FF/ 8GG/	.	8r	.
8r	.	8D-\ 8F\ 8G\ 8d-\	.
8CC/ 8FF/ 8AA-/	.	8r	.
8r	.	8C\ 8F\ 8A-\ 8c\	.
8CC/ 8FF/ 8AA-/	.	8r	.
8r	.	8C\ 8En\ 8G\ 8c\	.
8BBB-/ 8EEn/ 8GG/	.	8r	.
8r	.	8C\ 8E\ 8G\ 8c\	.
*	*	*clefG2	*clefG2
=255	=255	=255	=255
8AAA-/ 8CC/ 8FF/ 8AA-/	.	8r	.
8r	.	8c/ 8f/ 8a-/ 8cc/	.
8AAA-/ 8CC/ 8FF/ 8AA-/	.	8r	.
8r	.	8d-/ 8f/ 8g/ 8dd-/	.
8BBB-/ 8FF/ 8GG/ 8BB-/	.	8r	.
8r	.	8d-/ 8f/ 8g/ 8dd-/	.
8CC/ 8FF/ 8AA-/ 8C/	.	8r	.
8r	.	8c/ 8f/ 8a-/ 8cc/	.
8CC/ 8FF/ 8AA-/ 8C/	.	8r	.
8r	.	8c/ 8en/ 8g/ 8cc/	.
8BBB-/ 8EEn/ 8GG/ 8BB-/	.	8r	.
8r	.	8c/ 8e/ 8g/ 8cc/	.
=256	=256	=256	=256
8AAA-/ 8CC/ 8FF/ 8AA-/	.	8r	ff
8r	.	8cc\ 8ff\ 8aa-\ 8ccc\	.
8AAA-/ 8CC/ 8FF/ 8AA-/	.	8r	.
8r	.	8dd-\ 8ff\ 8gg\ 8ddd-\	.
8BBB-/ 8FF/ 8GG/ 8BB-/	.	8r	.
8r	.	8dd-\ 8ff\ 8gg\ 8ddd-\	.
8CC/ 8FF/ 8AA-/ 8C/	.	8r	.
8r	.	8cc\ 8ff\ 8aa-\ 8ccc\	.
8CC/ 8FF/ 8AA-/ 8C/	.	8r	.
8r	.	8cc\ 8een\ 8gg\ 8ccc\	.
8CC/ 8EEn/ 8GG/ 8C/	.	8r	.
8r	.	8cc\ 8ee\ 8gg\ 8ccc\	.
=257	=257	=257	=257
*ped	*	*	*
4FFF/ 4FF/	.	16c/LL	ff
.	.	16A-/	.
.	.	16c/	.
.	.	16A-/	.
8r	.	16c/	.
.	.	16A-/JJ	.
*clefG2	*	*	*
[4a-\	.	16c/LL	p
.	.	16A-/	.
.	.	16c/	.
!	!	!LO:TX:t=dim.	!
.	.	16A-/	.
16a-\LL]	.	16c/	.
16cc\JJ	.	16A-/JJ	.
4.ff\	.	16c/LL	.
.	.	16A-/	.
.	.	16c/	.
.	.	16A-/	.
.	.	16c/	.
.	.	16A-/JJ	.
[4aa-\	.	16c/LL	.
.	.	16A-/	.
.	.	16c/	.
.	.	16A-/	.
16aa-\LL]	.	16c/	.
16ccc\JJ	.	16A-/JJ	.
=258	=258	=258	=258
!LO:S:b	!	!	!
(4.fff\	.	16c/LL	.
.	.	16A-/	.
.	.	16c/	.
.	.	16A-/	.
.	.	16c/	.
.	.	16A-/JJ	.
[4ccc\	.	16c/LL	.
.	.	16A-/	.
.	.	16c/	.
.	.	16A-/	.
16ccc\LL]	.	16c/	.
16aa-\JJ	.	16A-/JJ	.
4.ff\	.	16c/LL	.
.	.	16A-/	.
.	.	16c/	.
.	.	16A-/	.
.	.	16c/	.
.	.	16A-/JJ	.
[4cc\	.	16c/LL	.
.	.	16A-/	.
.	.	16c/	.
.	.	16A-/	.
16cc\LL]	.	16c/	.
16a-\JJ)	.	16A-/JJ	.
=259	=259	=259	=259
(4.f/	.	16c/LL	.
.	.	16A-/	.
.	.	16c/	.
.	.	16A-/	.
.	.	16c/	.
.	.	16A-/JJ	.
*clefF4	*	*	*
[4c\	.	16a-/LL	.
.	.	16f/	.
.	.	16a-/	.
.	.	16f/	.
16c\LL]	.	16a-/	.
16A-\JJ	.	16f/JJ	.
4.F\	.	16cc/LL	.
.	.	16a-/	.
.	.	16cc/	.
.	.	16a-/	.
.	.	16cc/	.
.	.	16a-/JJ	.
[4C/	.	16cc/LL	.
.	.	16a-/	.
.	.	16cc/	.
.	.	16a-/	.
16C/LL]	.	16cc/	.
16AA-/JJ	.	16a-/JJ	.
=260	=260	=260	=260
4.FF/	.	16cc/LL	.
.	.	16a-/	.
.	.	16cc/	.
.	.	16a-/	.
.	.	16cc/	.
.	.	16a-/JJ	.
[4CC/	.	16cc/LL	.
.	.	16a-/	.
.	.	16cc/	.
.	.	16a-/	.
16CC/LL]	.	16cc/	.
16AAA-/JJ)	.	16a-/JJ	.
4.FFF/	.	16cc/LL	pp
.	.	16a-/	.
.	.	16cc/	.
.	.	16a-/	.
.	.	16cc/	.
.	.	16a-/JJ	.
4.FFF/	.	16cc/LL	.
.	.	16a-/	.
.	.	16cc/	.
.	.	16a-/	.
.	.	16cc/	.
.	.	16a-/JJ	.
=261	=261	=261	=261
2.FFF/	.	16cc/LL	.
.	.	16a-/	.
.	.	16cc/	.
.	.	16a-/	.
.	.	16cc/	.
.	.	16a-/JJ	.
.	.	16cc/LL	.
.	.	16a-/	.
.	.	16cc/	.
.	.	16a-/	.
.	.	16cc/	.
.	.	16a-/JJ	.
2.FFF/	.	16cc/LL	.
.	.	16a-/	.
.	.	16cc/	.
.	.	16a-/	.
.	.	16cc/	.
.	.	16a-/JJ	.
.	.	16cc/LL	.
.	.	16a-/	.
.	.	16cc/	.
.	.	16a-/	.
.	.	16cc/	.
.	.	16a-/JJ	.
=262	=262	=262	=262
1.FFF;	.	1.a-; 1.cc;	ppp
==	==	==	==
*-	*-	*-	*-
!!!ENC: Craig Stuart Sapp
!!!END: 2004/07/01/
!!!EEV: 2014/07/13/ (added ottavas)
!!!EED: Craig Stuart Sapp
!!!ONB: basic proof-reading
